!!!!SEGMENT: pl-wtm--r-2007--001_smietanski-emil-wladyslaw--sonate-op-2-allegro-assai.krn
!!!cenid: 18xx:1990
!!!COM: Śmietański, Emil Władysław
!!!COM-rismid: pe50041781
!!!CDT: 1845-1886
!!!CNT: Polish
!!!OTL: Sonate op. 2 – Allegro assai
!!!PDT: 1865
!!!AGN: Secular; Sonata
!!!SMS-siglum: PL-Wtm
!!!SMS-shelfmark: R 2007
!!!SMS-shelfwork: 001-001 M
!!!SMS-variant:
!!!SMS-altvar:
!!!NIFC-rismid: 1001112887
!!!URL-scan: http://repozytoriumplikow.nifc.pl/skany/pl-wtm-nut--r2007
!!!ONB-nifc: UWAGA: części Sonaty: 1. Allegro assai, 2. Larghetto, 3. Scherzo, 4. Finale. Presto
**kern	**kern	**kern	**dynam
*part2	*part2	*part1	*part1
*staff3	*staff2	*staff1	*
*I"Piano	*I"Piano	*I"Violon	*
*>[A,B,B,C]	*>[A,B,B,C]	*>[A,B,B,C]	*>[A,B,B,C]
*>A	*>A	*>A	*>A
*clefF4	*clefG2	*clefG2	*
*k[b-e-a-d-]	*k[b-e-a-d-]	*k[b-e-a-d-]	*
*M4/4	*M4/4	*M4/4	*
*met(c)	*met(c)	*met(c)	*
*all\right	*all\right	*all\right	*
=1	=1	=1	=1
!	!LO:TX:a:Bi:t=Allegro assai.	!LO:TX:a:t=2	!
!	!	!LO:TX:a:Bi:t=Alegro.	!
8E-| 8EE-\	8e-\|	1r	.
8ryy	8r	.	.
4gg>t\	4bb-T\	.	.
32qqff#X>\LLL	16qqaan\LL	.	.
32qqgg>\JJJ	32qqbb-\JJk	.	.
4ryy	8eee- 8ee-\	.	.
.	8r	.	.
4gg>t\	4bb-T\	.	.
32qqff#X>\LLL	32qqaan\LLL	.	.
32qqgg>\JJJ	32qqbb-\JJJ	.	.
=2	=2	=2	=2
4ryy	4eee- 4ee-\	1r	.
*Xtuplet	*	*	*
12e-L 12E-/	4r	.	.
12e- 12E-/	.	.	.
12e-J 12E-/	.	.	.
4e- 4E-/	4r	.	.
=!|:	=!|:	=!|:-	=!|:
*>B	*>B	*>B	*>B
4e- 4E-/	4ryy	.	.
=3	=3	=3	=3
*2\right	*2\right	*	*
!	!	!LO:TX:a:t=8	!
2E- 2AA-\	2a- 2c 2A-\	1r	.
2E- 2EE-\	4b- [4g 4B-\	.	.
.	4dd- 4g] 4e-\	.	.
=4	=4	=4	=4
*	*^	*	*
2E- 2AA-\	8dd-L 8d-\	2e-/	1r	.
.	8cc 8c\	.	.	.
.	8b- 8B-\	.	.	.
.	8a-J 8A-\	.	.	.
4EE-\	4b- 4e- 4G\	2ryy	.	.
4E-\	4e-\	.	.	.
*	*v	*v	*	*
=5	=5	=5	=5
2E- 2AA-\	4a- 4c 4A-\	1r	.
.	8gL 8G'\	.	.
.	8a-J 8A-\	.	.
2E- 2EE-\	4b- [4g 4B-\	.	.
.	4ee- 4g] 4e-\	.	.
=6	=6	=6	=6
*	*^	*	*
2E- 2AA-\	8dd-L 8d-\	2e-/	1r	.
.	8cc 8c\	.	.	.
.	8b- 8B-\	.	.	.
.	8a-J 8A-\	.	.	.
!	!LO:TX:t=P:problem:obiegnik z kasownikiem	!	!	!
4E- 4EE-\	4b- 4e- 4GS\	2ryy	.	.
!	!LO:N:vis=8	!	!	!
4r	4cc\	.	.	.
*	*v	*v	*	*
!LO:LB:g=original	!LO:LB:g=original	!	!
=7	=7	=7	=7
2A- 2F 2FF\	4dd- 4d-\	1r	.
.	8ffL 8f\	.	.
.	8aa-J 8a-\	.	.
4B- 4E- 4GG\	4ee- 4e-\	.	.
4A- 4E- 4AA-\	4cc 4c\	.	.
=8	=8	=8	=8
2A- 2F 2FF\	8dd-L 8d-\	1r	.
.	8een 8en\	.	.
.	8ff 8f\	.	.
.	8aa-J 8a-\	.	.
!	!LO:SIC:v:s=4ee- 4e-\	!	!
4B- 4E- 4GG\	4ee 4e\	.	.
4A- 4E- 4AA-\	8dd-L 8d-\	.	.
.	8ccJ 8c\	.	.
=9	=9	=9	=9
*	*^	*	*
2F 2D-\	4b- 4B-\	2f/	1r	.
.	4b- 4B-\	.	.	.
2F 2Dn\	4bn 4Bn\	2f/	.	.
.	4a- 4A-\	.	.	.
*	*v	*v	*	*
=10	=10	=10	=10
2G: 2E-: 2BB-: 2EE-;:\	2ee-: 2g: 2B-;:\	1r	.
2ryy	2r	.	.
=11	=11	=11;	=11
!	!	!	!LO:DY:a:t=risoluto e forte
2AA-\	8r	4a-\	f
.	8e-L 8c\	.	.
.	8e-\	8g\L	.
.	8ee-J 8a-\	8a-\J	.
2EE-\	8r	4b-\	.
.	8e-L 8B-\	.	.
.	8g 8e-\	4ee-\	.
.	8ee-J 8g\	.	.
=12	=12	=12	=12
2AA-\	8r	8dd-\L	.
.	8e-L 8A-\	8cc\	.
.	8b- 8e-\	8b-\	.
.	8ccJ 8a-\	8a-\J	.
2EE-\	8r	4b-\	.
.	8e-L 8G\	.	.
.	8b- 8e-\	4e-\	.
.	8ee-J 8b-\	.	.
!LO:LB:g=original	!LO:LB:g=original	!	!
=13	=13	=13	=13
2AA-\	8r	4a-\	.
.	8e-L 8c\	.	.
.	8e-\	8g\L	.
.	8ee-J 8a-\	8a-\J	.
2EE-\	8r	4b-\	.
.	8e-L 8B-\	.	.
.	8g 8e-\	4ee-\	.
.	8ee-J 8g\	.	.
=14	=14	=14	=14
!	!	!LO:TUP:a:problem:klamra łukowa	!
2AA-\	8r	12dd-\L	.
.	.	12cc\	.
.	8e-L 8B-\	.	.
.	.	12b-\J	.
!	!	!LO:TUP:a:problem:klamra łukowa	!
.	8e- 8c\	12a-\L	.
.	.	12g\	.
.	8ee-J 8a-\	.	.
.	.	12a-\J	.
8EE-\	8ee-L 8g 8B-\	4b-\	.
8r	8e-\	.	.
4r	8e-\	(16g\LL	.
.	.	16a-\	.
.	8e-\J	16b-\	.
.	.	16cc\JJ)	.
!	!	!LO:LB:g=original	!
=15	=15	=15	=15
8EE-\	8ee-L 8g 8B-\	4dd-'\	.
8r	8e-\	.	.
4r	8e-\	(16b-\LL	.
.	.	16cc\	.
!	!	!LO:TX:t=cresc-:problem:dynamics with extention lines	!LO:HP:a:t=cresc-
.	8e-\J	16dd-\	<
.	.	16ee-\JJ)	.
4EE-\	8gL 8d-\	4ff'\	.
.	8g 8d-\	.	.
!	!	!LO:S:color=grey	!
4DD-\	8g 8B-\	(16dd-\LL	.
.	.	16ee-\	.
.	8e-J 8B-\	16ff\	.
.	.	16gg\JJ)	[[
=16	=16	=16	=16
!	!	!LO:TX:b:t=2:color=grey	!
2CC\	8e-L 8A-\	8aa-\	.
!	!	!	!LO:DY:a:rj
.	8a- 8e-\	4aa-\	ff
.	8e- 8A-\	.	.
.	8a-J 8e-\	4aa-\	.
4DD-\	8f-XL 8A-\	.	.
.	8a- 8f-\	4bb-\	.
4DDn\	8fn 8A-\	.	.
.	8a-J 8f\	8bbn\	.
=17	=17	=17	=17
4EE-\	8r	8ccc\L	.
!	!	!LO:TX:a:i:t=espressivo.	!
.	8e-L 8B-\	8bb-\	.
4r	8e- 8c\	8aa-\	.
.	8b-J 8e-\	8gg\J	.
4FF\	8r	4aa-\	.
.	8dnL 8B-\	.	.
4r	8d 8c\	4ddn\	.
.	8a-J 8d\	.	.
=18	=18	=18	=18
4EE-\	8r	8ff\L	.
.	8e-L 8A-\	8ee-\	.
4r	8e- 8B-\	8dd-\	.
.	8a-J 8c\	8cc\J	.
4EE-\	8r	4dd-\	.
.	8e-L 8G\	.	.
!	!	!LO:TX:a:t=b	!
4r	8e- 8d-\	4b-\	.
.	8gJ 8e-\	.	.
!LO:LB:g=original	!LO:LB:g=original	!	!
=19	=19	=19	=19
8cL 8AA-\	4a- 4e- 4A-\	4a-\	.
8B-\J	.	.	.
8A-M\L	4r	4r	.
8G\J	.	.	.
8F\L	2r	4r	.
8E-\J	.	.	.
8D-M\L	.	4cc 4a-\	.
8C\J	.	.	.
=20	=20	=20	=20
!	!	!	!LO:DY:a:t=m.f
4BB-\	8a-L 8d-\	4cc 4a-\	mf
.	8e-\	.	.
4r	8ee- 8g\	8b-L 8g\	.
.	8e-\J	8ccJ 8a-\	.
4EE-\	8gL 8d-\	4dd- 4b-\	.
.	8e-\	.	.
4r	8ee- 8g\	4ee- 4g\	.
.	8e-\J	.	.
!	!	!LO:LB:g=original	!
=21	=21	=21	=21
4AA-\	8a-L 8c\	4.ee- 4.a-\	.
.	8e-\	.	.
4r	8ee- 8a-\	.	.
.	8e-\J	8aa- 8a-\	.
4C\	8a-L 8c\	4ee- 4a-\	.
.	8e-\	.	.
4r	8ee- 8a-\	4cc 4a-\	.
.	8e-\J	.	.
=22	=22	=22	=22
4BB-\	8a-L 8d-\	(8b-\L	.
.	8e-\	8a-\J)	.
!	!	!	!LO:HP:a
4r	8ee- 8g\	(8g\L	<
.	8e-\J	8a-\J)	.
2EE-\	8ee-L 8g 8e-\	(8b-\L	.
.	8ee- 8a- 8e-\	8cc\J)	.
.	8ee- 8b- 8e-\	(8dd-\L	.
.	8ee-J 8bn 8e-\	8ddn\J)	.
=23	=23	=23	=23
2AA-\	4ee- 4cc 4e-\	4ee-\	.
.	8aa-L 8a-\	8cc\L	.
.	8ggJ 8g\	8dd-\J	.
2C\	8ffL 8f\	8ee-\L	.
.	8ee-J 8e-\	8ff\J	.
.	8dd-L 8d-\	8gg\L	.
.	8ccJ 8c\	8aa-\J	.
=24	=24	=24	=24
*	*	*2\right	*
2D-\	8ccL 8c\	2aa-\	[
.	8b-J 8B-\	.	.
.	8aa-L 8a-\	.	.
.	8ffJ 8f\	.	.
2EE-\	8ee-L 8e-\	2ggtt\	.
.	8dd-J 8d-\	.	.
.	8ccL 8c\	.	.
.	8b-J 8B-\	.	.
.	.	32qqff\LLL	.
.	.	32qqgg\JJJ	.
!LO:LB:g=original	!LO:LB:g=original	!	!
=25	=25	=25	=25
!	!	!	!LO:DY:a
4ryy	16AA-<\	2aa-\	p
.	16c\LL	.	.
.	16a-\	.	.
.	16ee-\JJ	.	.
4r	16ee-\LL	.	.
.	16cc\	.	.
.	16c\	.	.
.	16ee-\JJ	.	.
4r	8ee-\L	8ccc^^\L	.
.	8dd-\J	8bb-\	.
4EE-\	8cc\L	8aa-\	.
.	8b-\J	8gg\J	.
=26	=26	=26	=26
4AA-\	16a-\LL	2aa-\	.
.	16cc\	.	.
.	16e-\	.	.
.	16c\JJ	.	.
!	!LO:TX:t=P:problem:mixed beam	!	!
4r	16A-</LL	.	.
.	16c\	.	.
.	16e-\	.	.
.	16a-\JJ	.	.
4FF\	8ee-\L	8ccc^^\L	.
.	8dd-\	8bb-\	.
4F\	8cc\	8aan\	.
.	8ff\J	8ff\J	.
!	!	!LO:LB:g=original	!
=27	=27	=27	=27
!	!	!LO:TX:t=P:problem:skreślony takt	!
4BB-\	16b-\LL	2bb-\	.
.	16dd-\	.	.
.	16f\	.	.
.	16d-\JJ	.	.
4r	16B-\LL	.	.
.	16d-\	.	.
.	16f\	.	.
.	16b-\JJ	.	.
4GG\	8ff\L	8ddd-^^\L	.
.	8ee-\J	8ccc\	.
4G\	8ddn\L	8bbn\	.
.	8gg\J	8gg\J	.
=28	=28	=28	=28
!	!	!LO:TX:t=P:problem:skreślony takt	!
4C\	16ee-\LL	2ccc\	.
.	16gg\	.	.
.	16cc\	.	.
.	16g\JJ	.	.
4r	16e-\LL	.	.
.	16g\	.	.
.	16cc\	.	.
.	16ee-\JJ	.	.
4FF\	8gg\L	8eee-^^\L	.
.	8ff\J	8dddn\	.
4F\	8ee-\L	8ccc\	.
.	8dd-\J	8aan\J	.
=29	=29	=29	=29
2BB-\	4ddn\	(16bb-\LL	.
!	!	!	!LO:DY:a
.	.	16aan\	ppp
.	.	16gg\	.
.	.	16ff\JJ)	.
.	4dd 4b-\	(16bb-\LL	.
.	.	16aan\	.
.	.	16gg\	.
.	.	16ff\JJ)	.
2BB-\	4cc 4b-\	(16bb-\LL	.
.	.	16aa\	.
.	.	16gg\	.
!	!	!LO:TX:t=P:problem:skreślona kreska taktowa	!
.	.	16ff\JJ)	.
.	4ff 4an\	(16bb-\LL	.
.	.	16aa\	.
.	.	16gg\	.
.	.	16ff\JJ)	.
!LO:LB:g=original	!LO:LB:g=original	!	!
=30	=30	=30	=30
2BB-\	4b-\	(16bb-\LL	.
.	.	16aan\	.
.	.	16gg\	.
.	.	16ff\JJ)	.
.	4ddn 4b-\	(16bb-\LL	.
.	.	16aa\	.
.	.	16gg\	.
.	.	16ff\JJ)	.
2FF\	4cc 4b-\	(16bb-\LL	.
.	.	16aa\	.
.	.	16gg\	.
.	.	16ff\JJ)	.
.	4ff 4an\	(16bb-\LL	.
.	.	16aa\	.
.	.	16gg\	.
.	.	16ff\JJ)	.
!	!	!LO:LB:g=original	!
=31	=31	=31	=31
8BB-'\L	4b-\	2bb-TT\	.
8C'\	.	.	.
8Dn'\	4ddn 4b-\	.	.
8E-'\J	.	.	.
8F'\L	4dd 4b-\	2bb-TTT\	.
8G'\	.	.	.
8An'\	4dd 4b-\	.	.
8B-'\J	.	.	.
=32	=32	=32	=32
8c'\L	4cc 4b-\	2bb-TT\	.
8B-'\	.	.	.
8A-'\	4cc 4b-\	.	.
8G'\J	.	.	.
8F'\L	4cc 4a-\	2bb-TTT\	.
8E-'\	.	.	.
8Dn'\	4ff 4a-\	.	.
8C'\J	.	.	.
=33	=33	=33	=33
8BB-'\L	4ff 4a-\	2bb-TT\	.
8C'\	.	.	.
8Dn'\	4cc 4a-\	.	.
8E-'\J	.	.	.
8F'\L	4cc 4a-\	2bb-TTT\	.
8G'\	.	.	.
8A-'\	4cc 4a-\	.	.
8B-'\J	.	.	.
=34	=34	=34	=34
8c\L	4b- 4a-\	2bb-TT\	.
8dn\	.	.	.
8e-\	4ee- 4g\	.	.
8d\J	.	.	.
8c\L	4an 4g\	2bb-TTT\	.
8B-\	.	.	.
8An\	4ee- 4f#X\	.	.
8E-\J	.	.	.
=35	=35	=35	=35
4BB-\	4ee- 4fn\	2bb-TT\	.
4r	4dd- 4f\	.	.
4BB-\	4dd- 4f#X\	2bb-TTT\	.
4r	4ee- 4g\	.	.
.	.	32qqaan\LLL	.
.	.	32qqbb-\JJJ	.
=36	=36	=36	=36
*^	*	*	*
!	!	!	!	!LO:DY:a:t=p.p.
8EE-\	2ryy	8ee- 8g\	8eee-\	pp
8r	.	8r	8r	.
4r	.	4ggt\	4bb-TT\	.
.	.	32qqff#X\LLL	32qqaan\LLL	.
!	!	!LO:TX:b:t=ms.	!	!
.	.	32qqgg\JJJ	32qqbb-\JJJ	.
8g>\	8E-\	8ee-/	8eee-'\	.
8r	8ryy	8r	8r	.
4r	4ryy	4ggt\	4bb-TT\	.
.	.	32qqff#X\LLL	32qqaan\LLL	.
.	.	32qqgg\JJJ	32qqbb-\JJJ	.
*v	*v	*	*	*
!LO:LB:g=original	!LO:LB:g=original	!	!
=37	=37	=37	=37
!	!	!LO:TUP:a:problem:klamra łukowa	!
16e->\	16ryy	12eee-\L	.
16ryy	16g/LL	.	.
.	.	12fff\	.
8ryy	16ee-/	.	.
.	.	12ggg\J	.
.	16bb-/JJ	.	.
*	*	*Xtuplet	*
!	!	!LO:TX:a:i:t=stacato	!
16bb->\	16ryy	12fff\L	.
8ryy	16ee-/LL	.	.
.	.	12eee-\	.
.	16g/JJ	.	.
.	.	12dddn\J	.
16e->\	16ryy	.	.
*rep	*rep	*	*
16e->\	16ryy	12ccc\L	.
16ryy	16g/LL	.	.
.	.	12bb-\	.
8ryy	16ee-/	.	.
.	.	12aan\J	.
.	16bb-/JJ	.	.
16bb->\	16ryy	12bb-\L	.
8ryy	16ee-/LL	.	.
.	.	12ccc\	.
.	16g/JJ	.	.
.	.	12bb-\J	.
16e->\	16ryy	.	.
*Xrep	*Xrep	*	*
!	!	!LO:LB:g=original	!
=38	=38	=38	=38
8f 8BB-\	8bb- 8ddn\	8fff'\	.
8r	8r	8r	.
4r	4dddnt\	4bb-TT\	.
.	32qqccc#X\LLL	32qqaan\LLL	.
.	32qqddd\JJJ	32qqbb-\JJJ	.
8f 8B-\	8bb- 8dd\	8fff'\	.
8r	8r	8r	.
4r	4dddt\	4bb-TT\	.
.	32qqccc#\LLL	32qqaan\LLL	.
.	32qqddd\JJJ	32qqbb-\JJJ	.
=39	=39	=39	=39
*	*	*tuplet	*
!	!	!LO:TUP:a:problem:klamra łukowa	!
16b->\	16ryy	12fff\L	.
16ryy	16ddn/LL	.	.
.	.	12ggg\	.
8ryy	16bb-/	.	.
.	.	12aaa-\J	.
.	16fff/JJ	.	.
*	*	*Xtuplet	*
16dddn>\	16ryy	12ggg\L	.
8ryy	16bb-/LL	.	.
.	.	12fff\	.
.	16dd/JJ	.	.
.	.	12eee-\J	.
16b->\	16ryy	.	.
*rep	*rep	*	*
16b->\	16ryy	12dddn\L	.
16ryy	16dd/LL	.	.
.	.	12ccc\	.
8ryy	16bb-/	.	.
.	.	12bb-\J	.
.	16fff/JJ	.	.
16ddd>\	16ryy	12aan\L	.
8ryy	16bb-/LL	.	.
.	.	12ccc\	.
.	16dd/JJ	.	.
.	.	12bb-\J	.
16b->\	16ryy	.	.
*Xrep	*Xrep	*	*
=40	=40	=40	=40
*^	*	*	*
8g 8E-\	4ryy	8eee- 8bb- 8ee-\	12bb-\L	.
.	.	.	12eee-\	.
8r	.	8r	.	.
.	.	.	12eee-\J	.
*	*	*	*tremolo	*
!	!	!	!LO:TX:t=P:problem:złe wyświetlanie wartości rytmicznej tremolo:global	!
!	!	!LO:TX:b:t=m.s	!LO:N:TREM:vis=4.	!
4gg>t\	4r	4bb-T\	12eee-\L	.
.	.	.	12eee-\	.
.	.	.	12eee-\J	.
*	*	*	*Xtremolo	*
32qqff#X>\LLL	.	32qqaan\LLL	.	.
32qqgg>\JJJ	.	32qqbb-\JJJ	.	.
4ryy	2r	8eee- 8ee-\	12bb-\L	.
.	.	.	12eee-\	.
.	.	8r	.	.
.	.	.	12eee-\J	.
*	*	*	*tremolo	*
!	!	!LO:TX:b:t=m.s	!LO:N:TREM:vis=4.	!
4gg>t\	.	4bb-T\	12eee-\L	.
.	.	.	12eee-\	.
.	.	.	12eee-\J	.
*	*	*	*Xtremolo	*
32qqff#>\LLL	.	32qqaa\LLL	.	.
32qqgg>\JJJ	.	32qqbb-\JJJ	.	.
*v	*v	*	*	*
=41	=41	=41	=41
.	.	32qqeee-\LLL	.
.	.	32qqfff\JJJ	.
16ee->\	16ryy	12ggg\L	.
*	*8va	*	*
!	!LO:TX:t=P:problem:takty nr 41-43 zapisano w górnej pięciolinii [8va -> błędne przenoszenie]	!	!
16ryy	16gg/LL	.	.
.	.	12fff\	.
8ryy	16eee-/	.	.
.	.	12eee-\J	.
.	16bbb-/JJ	.	.
4ryy	16bbb-\	12ddd-\L	.
.	16eee-/LL	.	.
!	!	!LO:TX:t=cresc._:problem:dynamics with extention lines	!LO:HP:a:t=cresc._
.	.	12ccc\	<
.	16gg/JJ	.	.
.	.	12bb-\J	.
.	16ee-\	.	.
*	*rep	*	*
2ryy	16ee-\	12aa-\L	.
.	16gg/LL	.	.
.	.	12gg\	.
.	16eee-/	.	.
.	.	12ff\J	.
.	16bbb-/JJ	.	.
.	16bbb-\	12ee-\L	.
.	16eee-/LL	.	.
.	.	12ddn\	.
.	16gg/JJ	.	.
.	.	12ee-\J	.
.	16ee-\	.	.
*	*Xrep	*	*
*	*X8va	*	*
!LO:LB:g=original	!LO:LB:g=original	!	!
=42	=42	=42	=42
*	*^	*	*
*	*8va	*	*	*
!LO:SIC:v:n=2:s=8AA-	!	!	!	!
8E- 8GG 8CC\	8aaa- 8eee- 8aa-\	4ryy	12ee-\L	.
.	.	.	12aa-\	.
8r	8r	.	.	.
!	!	!	!	!LO:HP:a
.	.	.	12aa-\J	[ <
*	*	*	*tremolo	*
!	!	!	!LO:N:TREM:vis=4.	!
4r	4eee-T\	4ccct\	12aa-\L	.
.	.	.	12aa-\	.
.	.	.	12aa-\J	.
*	*	*	*Xtremolo	*
.	32qqdddn\LLL	32qqbbn\LLL	.	.
.	32qqeee-\JJJ	32qqccc\JJJ	.	.
2ryy	8aaa- 8aa-\	4ryy	12ee-\L	.
.	.	.	12aa-\	.
.	8r	.	.	.
.	.	.	12aa-\J	.
*	*	*	*tremolo	*
!	!	!	!LO:N:TREM:vis=4.	!
.	4eee-T\	4cccT\	12aa-\L	.
.	.	.	12aa-\	.
.	.	.	12aa-\J	[[
*	*	*	*Xtremolo	*
.	32qqddd\LLL	32qqbb\LLL	.	.
.	32qqeee-\JJJ	32qqccc\JJJ	.	.
*	*v	*v	*	*
!	!	!LO:LB:g=original	!
=43	=43	=43	=43
.	.	32qqaa-\LLL	.
.	.	32qqbb-\JJJ	.
!	!	!	!LO:HP:a
2ryy	16aa-\	12ccc\L	<
.	16ccc/LL	.	.
.	.	12bb-\	.
.	16aaa-/	.	.
.	.	12aa-\J	.
.	16eeee-/JJ	.	.
*	*Xtuplet	*	*
.	12eeee-L 12eee-\	12gg\L	.
.	12ddddn 12dddn\	12ff\	.
.	12ccccJ 12ccc\	12ee-\J	.
8b-\	12bbb-L 12bb-\	12dd-\L	.
.	12aaa- 12aa-\	12cc\	.
8r	.	.	.
.	12gggJ 12gg\	12b-\J	.
8B-\	12fffL 12ff\	12a-\L	.
.	12eee- 12ee-\	12gn\	.
8r	.	.	.
.	12dddJ 12ddn\	12f\J	.
*	*X8va	*	*
=44	=44	=44	=44
!	!LO:TX:a:i:t=loco	!	!
12E-L 12EE-\	12eee-L 12ee- 12g\	(16G\LL	.
.	.	16e-\	[
12F 12FF\	12f\	.	.
.	.	16b-\	.
12GJ 12GG\	12g\J	.	.
!	!	!LO:TX:t=fff-:dur=9qs:ext=cd:problem:dynamics with extention lines	!LO:DY:a:t=fff-
.	.	16gg\JJ)	fff
12FL 12FF\	12f\L	(16gg\LL	.
.	.	16b-\	.
12E- 12EE-\	12e-\	.	.
.	.	16e-\	.
12DnJ 12DDn\	12dn\J	.	.
.	.	16G\JJ)	.
!	!LO:TX:t=P:problem:mixed beam	!	!
12CL 12CC\	12c\L	(16G\LL	.
.	.	16e-\	.
12BB- 12BBB-\	12B-</	.	.
.	.	16b-\	.
12AA-J 12AAA-\	12An</J	.	.
.	.	16gg\JJ)	.
12BB-L 12BBB-\	12B-</L	(16gg\LL	.
.	.	16b-\	.
12C 12CC\	12c</	.	.
.	.	16e-\	.
12BB-J 12BBB-\	12B-</J	.	.
.	.	16G\JJ)	.
=45	=45	=45	=45
12BB-L 12BBB-\	12B-\L	(16G\LL	.
.	.	16e-\	.
12E- 12EE-\	12e-\	.	.
.	.	16b-\	.
12E-J 12EE-\	12e-\J	.	.
.	.	16gg\JJ)	.
*tremolo	*tremolo	*	*
!LO:N:TREM:vis=4.	!LO:N:TREM:vis=4.	!	!
12E-L 12EE-\	12e-\L	(16gg\LL	.
.	.	16b-\	.
12E- 12EE-\	12e-\	.	.
.	.	16e-\	.
12E-J 12EE-\	12e-\J	.	.
*Xtremolo	*Xtremolo	*	*
.	.	16G\JJ)	.
*rep	*rep	*	*
12BB-L 12BBB-\	12B-\L	(16G\LL	.
.	.	16e-\	.
12E- 12EE-\	12e-\	.	.
.	.	16b-\	.
12E-J 12EE-\	12e-\J	.	.
.	.	16gg\JJ)	.
*tremolo	*tremolo	*	*
!LO:N:TREM:vis=4.	!LO:N:TREM:vis=4.	!	!
12E-L 12EE-\	12e-\L	(16gg\LL	.
.	.	16b-\	.
12E- 12EE-\	12e-\	.	.
.	.	16e-\	.
12E-J 12EE-\	12e-\J	.	.
.	.	16G\JJ)	.
*Xrep	*Xrep	*	*
*Xtremolo	*Xtremolo	*	*
=46	=46	=46	=46
12E-L 12EE-\	12e-\L	(16G\LL	.
.	.	16e-\	.
12Dn 12DDn\	12dn\	.	.
.	.	16cc\	.
12CJ 12CC\	12c\J	.	.
.	.	16gg\JJ)	.
12E-L 12EE-\	12e-\L	(16gg\LL	.
.	.	16cc\	.
12D 12DD\	12d\	.	.
.	.	16e-\	.
12CJ 12CC\	12c\J	.	.
.	.	16G\JJ)	.
*rep	*rep	*	*
!	!	!LO:LB:g=original	!
!	!	!LO:TX:t=fff-:dur=9qs:ext=cd:problem:dynamics with extention lines	!LO:DY:a:t=fff-
12E-L 12EE-\	12e-\L	(16G\LL	fff
.	.	16e-\	.
12D 12DD\	12d\	.	.
.	.	16cc\	.
12CJ 12CC\	12c\J	.	.
.	.	16gg\JJ)	.
12E-L 12EE-\	12e-\L	(16gg\LL	.
.	.	16cc\	.
12D 12DD\	12d\	.	.
.	.	16e-\	.
12CJ 12CC\	12c\J	.	.
.	.	16G\JJ)	.
*Xrep	*Xrep	*	*
!LO:LB:g=original	!LO:LB:g=original	!	!
=47	=47	=47	=47
12BBnL 12BBBn\	12Bn</L	(16G\LL	.
.	.	16dn\	.
12GG 12GGG\	12G</	.	.
.	.	16bn\	.
12GGJ 12GGG\	12G</J	.	.
.	.	16gg\JJ)	.
*tremolo	*tremolo	*	*
!LO:N:TREM:vis=4.	!LO:N:TREM:vis=4.	!	!
12GGL 12GGG\	12G</L	(16gg\LL	.
.	.	16b\	.
12GG 12GGG\	12G</	.	.
.	.	16d\	.
12GGJ 12GGG\	12G</J	.	.
*Xtremolo	*Xtremolo	*	*
.	.	16G\JJ)	.
*rep	*rep	*	*
12BBL 12BBB\	12B</L	(16G\LL	.
.	.	16dn\	.
12GG 12GGG\	12G</	.	.
.	.	16bn\	.
12GGJ 12GGG\	12G</J	.	.
.	.	16gg\JJ)	.
*tremolo	*tremolo	*	*
!LO:N:TREM:vis=4.	!LO:N:TREM:vis=4.	!	!
12GGL 12GGG\	12G</L	(16gg\LL	.
.	.	16b\	.
12GG 12GGG\	12G</	.	.
.	.	16d\	.
12GGJ 12GGG\	12G</J	.	.
.	.	16G\JJ)	.
*Xrep	*Xrep	*	*
*Xtremolo	*Xtremolo	*	*
=48	=48	=48	=48
12GL 12GG\	12g\L	(16G\LL	.
.	.	16dn\	.
12An 12AAn\	12an\	.	.
.	.	16b-X\	.
12B-J 12BB-\	12b-\J	.	.
.	.	16gg\JJ)	.
12AL 12AA\	12a\L	(16gg\LL	.
.	.	16b-\	.
12G 12GG\	12g\	.	.
.	.	16d\	.
12FJ 12FF\	12f\J	.	.
.	.	16G\JJ)	.
12E-L 12EE-\	12e-\L	(16G\LL	.
.	.	16d\	.
12Dn 12DDn\	12dn\	.	.
.	.	16b-\	.
12C#XJ 12CC#X\	12c#X\J	.	.
.	.	16gg\JJ)	.
12DL 12DD\	12d\L	(16gg\LL	.
.	.	16b-\	.
12E- 12EE-\	12e-\	.	.
.	.	16d\	.
12DJ 12DD\	12d\J	.	.
.	.	16G\JJ)	.
=49	=49	=49	=49
12DnL 12DDn\	12dn\L	(16G\LL	.
.	.	16dn\	.
12G 12GG\	12g\	.	.
.	.	16b-X\	.
12GJ 12GG\	12g\J	.	.
.	.	16gg\JJ)	.
*tremolo	*tremolo	*	*
!LO:N:TREM:vis=4.	!LO:N:TREM:vis=4.	!	!
12GL 12GG\	12g\L	(16gg\LL	.
.	.	16cc\	.
12G 12GG\	12g\	.	.
.	.	16d\	.
12GJ 12GG\	12g\J	.	.
.	.	16G\JJ)	.
*Xtremolo	*Xtremolo	*	*
*rep	*rep	*	*
!	!	!LO:LB:g=original	!
12DL 12DD\	12d\L	(16G\LL	.
.	.	16d\	.
12G 12GG\	12g\	.	.
.	.	16b-\	.
12GJ 12GG\	12g\J	.	.
.	.	16gg\JJ)	.
*tremolo	*tremolo	*	*
!LO:N:TREM:vis=4.	!LO:N:TREM:vis=4.	!	!
12GL 12GG\	12g\L	(16gg\LL	.
.	.	16b-\	.
12G 12GG\	12g\	.	.
.	.	16d\	.
12GJ 12GG\	12g\J	.	.
.	.	16G\JJ)	.
*Xrep	*Xrep	*	*
*Xtremolo	*Xtremolo	*	*
=50	=50	=50	=50
12GL 12GG\	12g\L	(16G\LL	.
.	.	16e-\	.
12F 12FF\	12f\	.	.
.	.	16cc\	.
12E-J 12EE-\	12e-\J	.	.
.	.	16gg\JJ)	.
12GL 12GG\	12g\L	(16gg\LL	.
.	.	16cc\	.
12F 12FF\	12f\	.	.
.	.	16e-\	.
12E-J 12EE-\	12e-\J	.	.
.	.	16G\JJ)	.
*rep	*rep	*	*
12GL 12GG\	12g\L	(16G\LL	.
.	.	16e-\	.
12F 12FF\	12f\	.	.
.	.	16cc\	.
12E-J 12EE-\	12e-\J	.	.
.	.	16gg\JJ)	.
12GL 12GG\	12g\L	(16gg\LL	.
.	.	16cc\	.
12F 12FF\	12f\	.	.
.	.	16e-\	.
12E-J 12EE-\	12e-\J	.	.
.	.	16G\JJ)	.
*Xrep	*Xrep	*	*
=51	=51	=51	=51
12DnL 12DDn\	12dn\L	(16G\LL	.
.	.	16dn\	.
12GG 12GGG\	12G\	.	.
.	.	16bn\	.
12GGJ 12GGG\	12G\J	.	.
.	.	16gg\JJ)	.
*tremolo	*tremolo	*	*
!LO:N:TREM:vis=4.	!LO:N:TREM:vis=4.	!	!
12GGL 12GGG\	12G\L	(16gg\LL	.
.	.	16bn\	.
12GG 12GGG\	12G\	.	.
.	.	16d\	.
12GGJ 12GGG\	12G\J	.	.
.	.	16G\JJ)	.
*	*Xtremolo	*	*
!LO:N:TREM:vis=4.	!	!	!LO:DY:a
12GGG\L	8G\	4G'\	fff
12GGG\	.	.	.
.	8r	.	.
12GGG\J	.	.	.
!LO:N:TREM:vis=4.	!	!	!
12GGG\L	4bn 4g\	4r	.
12GGG\	.	.	.
12GGG\J	.	.	.
*Xtremolo	*	*	*
=52	=52	=52	=52
!	!	!LO:TX:a:t=3	!
12GGG\L	2cc 2a-\	1r	.
12AAA-\	.	.	.
12BBB-\J	.	.	.
12CC\L	.	.	.
12DDn\	.	.	.
12EE-\J	.	.	.
12FF\L	4cc 4a-\	.	.
12GG\	.	.	.
12AA-\J	.	.	.
12BB-\L	4cc 4a-\	.	.
12C\	.	.	.
12Dn\J	.	.	.
!LO:LB:g=original	!LO:LB:g=original	!	!
=53	=53	=53	=53
12E-\L	2cc 2a-\	1r	.
12F\	.	.	.
12G\J	.	.	.
12A-\L	.	.	.
12B-\	.	.	.
12c\J	.	.	.
12dn\L	2cc 2a-\	.	.
12e-\	.	.	.
12f\J	.	.	.
*clefG2	*	*	*
12g/L	.	.	.
12a-/	.	.	.
12b-/J	.	.	.
=54	=54	=54	=54
8cc/	8a-\	1r	.
8ryy	8ryy	.	.
4cc>t\	4ee-T\	.	.
32qqbn>\LLL	32qqddn\LLL	.	.
32qqcc>\JJJ	32qqee-\JJJ	.	.
4ryy	8aa- 8a-\	.	.
.	8r	.	.
4cc>t\	4ee-T\	.	.
32qqb>\LLL	32qqdd\LLL	.	.
32qqcc>\JJJ	32qqee-\JJJ	.	.
=55	=55	=55	=55
1ryy	4aa- 4a-\	4r	.
*	*	*tuplet	*
!	!	!LO:TUP:a:problem:klamra łukowa	!LO:DY:a
.	4r	12a-\L	p
.	.	12a-\	.
.	.	12a-\J	.
.	2r	4a-|\	.
.	.	4a-|\	.
!	!	!LO:LB:g=original	!
=56	=56	=56	=56
!LO:CL:ed	!	!	!
*clefF4	*	*	*
!	!	!LO:TX:a:t=3	!
12FFF\L	2ddn 2a-\	1r	.
12GGG\	.	.	.
12AAA-\J	.	.	.
12BBB-\L	.	.	.
12CC\	.	.	.
12DDn\J	.	.	.
12EE-\L	4dd 4a-\	.	.
12FF\	.	.	.
12GG\J	.	.	.
12AA-\L	4dd 4a-\	.	.
12BB-\	.	.	.
12C\J	.	.	.
=57	=57	=57	=57
12Dn\L	2ddn 2a-\	1r	.
12E-\	.	.	.
12F\J	.	.	.
12G\L	.	.	.
12A-\	.	.	.
12B-\J	.	.	.
*clefG2	*	*	*
12c\L	2dd 2a-\	.	.
12dn\	.	.	.
12e-\J	.	.	.
12f\L	.	.	.
12g\	.	.	.
12a-\J	.	.	.
=58	=58	=58	=58
8b-\	4ddn 4a-\	1r	.
8ryy	.	.	.
4ddn>t\	4ffT\	.	.
32qqcc#X>\LLL	32qqeen\LLL	.	.
32qqdd>\JJJ	32qqff\JJJ	.	.
4ryy	8bb- 8b-\	.	.
.	8r	.	.
4dd>t\	4ffT\	.	.
32qqcc#>\LLL	32qqee\LLL	.	.
32qqdd>\JJJ	32qqff\JJJ	.	.
=59	=59	=59	=59
1ryy	8bb- 8b-\	4r	.
.	8r	.	.
!	!	!LO:TUP:a:problem:klamra łukowa	!LO:DY:a
.	4r	12b-\L	p
.	.	12b-\	.
.	.	12b-\J	.
.	2r	4b-'\	.
.	.	4b-'\	.
!LO:PB:g=original	!LO:PB:g=original	!	!
=60	=60	=60	=60
!LO:CL:ed	!	!	!
*clefF4	*	*	*
8B- 8E-\	4ee- 4g\	1r	.
8ryy	.	.	.
4gg>t\	4bb-T/	.	.
32qqff#X>\LLL	32qqaan/LLL	.	.
32qqgg>\JJJ	32qqbb-/JJJ	.	.
8ee->\	8eee-/	.	.
8r>	8rgg	.	.
4gg>t\	4bb-T/	.	.
32qqff#>\LLL	32qqaa/LLL	.	.
32qqgg>\JJJ	32qqbb-/JJJ	.	.
=61	=61	=61	=61
*	*^	*	*
4r	8eee-/	12ee-\L	4r	.
.	.	12bb- 12gg\	.	.
.	8ryy	.	.	.
.	.	12cccJ 12aa-\	.	.
!	!	!	!LO:TUP:a:problem:klamra łukowa	!LO:DY:a
4b-\	12bb-L 12gg\	4ryy	12b-\L	p
.	12aa- 12ff\	.	12b-\	.
.	12ggJ 12ee-\	.	12b-\J	.
4B-\	12ffL 12ddn\	2ryy	4b-'\	.
.	12ee- 12cc\	.	.	.
.	12ddJ 12b-\	.	.	.
4BB-\	12ccL 12a-\	.	4b-'\	.
.	12b- 12g\	.	.	.
.	12a-J 12f\	.	.	.
*	*v	*v	*	*
=62	=62	=62	=62
8EE-\	4g 4e-\	1r	.
8ryy	.	.	.
4g>t\	4b-T\	.	.
32qqf#X>\LLL	32qqan\LLL	.	.
32qqg>\JJJ	32qqb-\JJJ	.	.
8e->\	8ee-/	.	.
8ryy	8r	.	.
4g>t\	4b-T\	.	.
32qqf#>\LLL	32qqa\LLL	.	.
32qqg>\JJJ	32qqb-\JJJ	.	.
=63	=63	=63	=63
4r	12ee-L 12e-\	4r	.
.	12b- 12g\	.	.
.	12ccJ 12a-\	.	.
!	!	!LO:TUP:b:problem:klamra łukowa	!LO:DY:a:t=p.
4B-\	12b-L 12g\	12B-/L	p
.	12a- 12f\	12B-/	.
.	12gJ 12e-\	12B-/J	.
4BB-\	12fL 12dn\	4B-'/	.
.	12e- 12c\	.	.
.	12dJ 12B-\	.	.
4BBB-\	12c<L 12A-</	4B-'/	.
.	12B-< 12G</	.	.
.	12A-<J 12F</	.	.
=64	=64	=64	=64
!	!	!LO:TUP:b:problem:klamra łukowa	!
4EE-\	4G< 4E-</	12B-/L	.
.	.	12B-/	.
.	.	12B-/J	.
*	*	*tremolo	*
!	!	!LO:N:TREM:vis=4.	!
!	!	!LO:TX:a:t=bis	!
4r	4G< 4E-</	12B-/L	.
.	.	12B-/	.
.	.	12B-/J	.
!	!	!LO:N:TREM:vis=4.	!
4BBB-\	4F< 4E-</	12B-/L	.
.	.	12B-/	.
.	.	12B-/J	.
!	!	!LO:N:TREM:vis=4.	!
4r	4B-< 4Dn</	12B-/L	.
.	.	12B-/	.
.	.	12B-/J	.
*	*	*Xtremolo	*
!LO:LB:g=original	!LO:LB:g=original	!	!
=65	=65	=65	=65
!	!	!LO:TX:t=P:problem:fragment oznaczony znakiem repetycji	!
!	!	!LO:TUP:b:problem:klamra łukowa	!
4EE-\	4E-</	12B-/Lyy	.
.	.	12B-/yy	.
.	.	12B-/Jyy	.
*	*	*tremolo	*
!	!	!LO:N:TREM:vis=4.	!
4r	4g 4e-\	12B-/Lyy	.
.	.	12B-/yy	.
.	.	12B-/Jyy	.
!	!	!LO:N:TREM:vis=4.	!
4BB-\	4f 4e-\	12B-/Lyy	.
.	.	12B-/yy	.
.	.	12B-/Jyy	.
!	!	!LO:N:TREM:vis=4.	!
4r	4b- 4dn\	12B-/Lyy	.
.	.	12B-/yy	.
.	.	12B-/Jyy	.
=66	=66	=66	=66
!	!	!LO:TX:a:i:t=rallen. poco	!
4E-\	4e-\	12B-/L	.
.	.	12B-/	.
.	.	12B-/J	.
!	!	!LO:N:TREM:vis=4.	!
4E- 4D-X\	4f 4e-\	12B-/L	.
.	.	12B-/	.
.	.	12B-/J	.
!	!	!LO:N:TREM:vis=4.	!
4E- 4BB-\	4g 4e-\	12B-/L	.
.	.	12B-/	.
.	.	12B-/J	.
!	!	!LO:N:TREM:vis=4.	!
4E- 4AA-\	4a- 4e-\	12c/L	.
.	.	12c/	.
.	.	12c/J	.
*	*	*Xtremolo	*
=67	=67	=67	=67
!	!	!LO:TX:a:i:t=lunga.	!
2E- 2GG;\	2b- 2e- 2B-;\	1d-X;	.
2r	2r	.	.
.	4qqe- 4qqE-\	.	.
!	!	!LO:PB:g=original	!
=68:|!	=68:|!	=68:|!	=68:|!
*>C	*>C	*>C	*>C
2E- 2AA-\	2a- 2c-X 2A-\	1r	.
2E- 2EE-\	4b- [4g 4B-\	.	.
.	4ee- 4g] 4e-\	.	.
=69	=69	=69	=69
2E- 2AA-\	(8dd-L N[8e- 8d-\	2r	.
.	8cc-X 8e- 8c-X\	.	.
.	8b- 8e- 8B-\	.	.
.	8a-J 8e-N] 8A-\)	.	.
4EE-\	4b- 4e- 4G\	4r	.
4E-\	4e-\	4e-\	.
=70	=70	=70	=70
8E- 8AA-\	8e- 8c-X 8A-\	8a-|\	.
8r	8r	(16A-\LL	.
.	.	16B-\JJ	.
!	!	!	!LO:HP:a
4r	4r	16c-X\LL	<
.	.	16d-\	.
.	.	16e-\	.
.	.	16f\JJ	.
8E- 8AA-\	8e- 8c- 8A-\	16g\LL	.
.	.	16a-\)	.
8r	8r	(16c-\	.
.	.	16d-\JJ	.
4r	4r	16e-\LL	.
.	.	16f\	.
.	.	16g\	.
.	.	16a-\JJ	.
=71	=71	=71	=71
8E- 8AA-\	8e- 8c-X 8A-\	16b-\LL	.
.	.	16cc-X\)	.
8r	8r	(16e-\	.
.	.	16f\JJ	.
4r	4r	16g\LL	.
.	.	16a-\	.
.	.	16b-\	.
.	.	16cc-\JJ)	.
8E- 8AA-\	8e- 8c- 8A-\	(16b-\LL	.
.	.	16cc-\	.
8r	8r	16b-\	.
.	.	16cc-\JJ	.
4r	4r	16b-\LL	.
.	.	16cc-\	.
.	.	16b-\	.
.	.	16cc-\JJ)	.
!LO:LB:g=original	!LO:LB:g=original	!	!
=72	=72	=72	=72
*k[f#c#g#d#]	*k[f#c#g#d#]	*	*
8D# 8FF#\	8d#< 8B< 8A</	(16a#X\LL	.
.	.	16bn\	.
8r	8r	16ff#X\)	.
.	.	16ff#'\JJ	.
8D# 8FF#\	8d#< 8B< 8A</	(16ff#\LL	.
.	.	16f#X\	.
8r	8r	16dd#X\)	.
.	.	16dd#'\JJ	.
8D# 8FF#\	8d#< 8B< 8A</	(16dd#\LL	.
.	.	16d#X\	.
8r	8r	16b\)	.
.	.	16b'\JJ	.
8D# 8FF#\	8d#< 8B< 8A</	(16b\LL	.
.	.	16Bn\	.
8r	8r	16f#\)	.
.	.	16f#\JJ	[[
!	!	!LO:LB:g=original	!
=73	=73	=73	=73
!	!	!	!LO:HP:a
8BBL 8BBB\	8bL 8d# 8A\	(16f#X\LL	>
.	.	16g#X\	.
8BB 8BBB\	8b 8d# 8A\	16an\	.
.	.	16g#\JJ	.
8BB 8BBB\	8b 8d# 8A\	16bn\LL	.
.	.	16a\	.
8BBJ 8BBB\	8bJ 8d# 8A\	16g#\	.
.	.	16f#\JJ)	.
8BBL 8BBB\	8bL 8d# 8A\	(16en\LL	.
.	.	16d#X\	.
8BB 8BBB\	8d# 8A\	16g#\	.
.	.	16f#\JJ	.
8BB 8BBB\	8d# 8A\	16e\LL	.
.	.	16d#\	.
8BBJ 8BBB\	8d#J 8A\	16c#X\	.
.	.	16Bn\JJ)	]]
=74	=74	=74	=74
8BBL 8EE\	16BLL 16G#\	4Bn^^\	.
.	16c#\	.	.
8BB\	16d#\	.	.
.	16e\JJ	.	.
8BB 8EE\	16BLL 16G#\	4en^^\	.
.	16c#\	.	.
8BB\J	16d#\	.	.
.	16e\JJ	.	.
4BB 4BBB\	16e#XLL 16d# 16An\	4f#X^^\	.
.	16f#\	.	.
.	16b\	.	.
.	16b\JJ	.	.
4r	8b\	4bn^^\	.
.	8r	.	.
=75	=75	=75	=75
*rep	*rep	*	*
8BBL 8EE\	16BLL 16G#\	8an\L	.
.	16c#\	.	.
8BB\	16d#\	8g#X\	.
.	16e\JJ	.	.
8BB 8EE\	16BLL 16G#\	8f#X\	.
.	16c#\	.	.
8BB\J	16d#\	8en\J	.
.	16e\JJ	.	.
4BB 4BBB\	16e#XLL 16d# 16An\	4f#^^\	.
.	16f#\	.	.
.	16b\	.	.
.	16b\JJ	.	.
4r	8b\	4Bn\	.
.	8r	.	.
*Xrep	*Xrep	*	*
=76	=76	=76	=76
8BB 8EE\	8e 8G#\	8enL 8G#X\	.
16EE\LL	16E</LL	8e 8G#\	.
16FF#\JJ	16F#</JJ	.	.
16GG#\LL	16G#</LL	8e 8G#\	.
16AA\	16A</	.	.
!	!	!LO:TX:a:t=bis	!
16BB\	16B</	8eJ 8G#\	.
16C#\JJ	16c#</JJ	.	.
!	!	!LO:TX:t=cresc-:problem:dynamics with extention lines	!LO:HP:a:t=cresc-
16D#\LL	16d#\LL	8eL 8G#	<
16E\	16e\	.	.
16GG#\	16G#\	8e 8G#\	.
16AA\JJ	16A\JJ	.	.
16BB\LL	16B\LL	8e 8G#\	.
16C#\	16c#\	.	.
16D#\	16d#\	8eJ 8G#\	.
16E\JJ	16e\JJ	.	.
!LO:LB:g=original	!LO:LB:g=original	!	!
=77	=77	=77	=77
!	!	!LO:TX:t=P:problem:fragment oznaczony znakiem repetycji	!
16F##X\LL	16f##X\LL	8enLyy 8G#X\yy	.
16G#\	16g#\	.	.
16BB\	16B\	8eyy 8G#\yy	.
16C#\JJ	16c#\JJ	.	.
16D#\LL	16d#\LL	8eyy 8G#\yy	.
16E\	16e\	.	.
16F##\	16f##\	8eJyy 8G#\yy	.
16G#\JJ	16g#\JJ	.	.
16A#X\LL	16a#X\LL	8eLyy 8G#\yy	.
16B\	16b\	.	.
16A#\	16a#\	8eyy 8G#\yy	.
16B\JJ	16b\JJ	.	.
16A#\LL	16a#\LL	8eyy 8G#\yy	.
16B\	16b\	.	.
16A#\	16a#\	8eJyy 8G#\yy	[[
16B\JJ	16b\JJ	.	.
=78	=78	=78	=78
16A#X\LL	16a#X\LL	8fnL 8G#X\	.
16B\	16b\	.	.
16fn\	16ffn\	8f 8G#\	.
16f\JJ	16ff\JJ	.	.
16f\LL	16ff\LL	8f 8G#\	.
16Fn\	16fn\	.	.
16dn\	16ddn\	8fJ 8G#\	.
16d\JJ	16dd\JJ	.	.
16d\LL	16dd\LL	8fL 8G#\	.
16Dn\	16dn\	.	.
16B\	16b\	8f 8G#\	.
16B\JJ	16b\JJ	.	.
16B\LL	16b\LL	8f 8G#\	.
16BB\	16B\	.	.
16F\	16f\	8fJ 8G#\	.
16F\JJ	16f\JJ	.	.
!	!	!LO:LB:g=original	!
*kcancel	*kcancel	*	*
=79	=79	=79	=79
*k[b-e-a-d-]	*k[b-e-a-d-]	*	*
!	!	!	!LO:HP:a
16Dn\LL	16dn\LL	8fL 8Gn\	>
16E-\	16e-\	.	.
16F\	16f\	8f 8G\	.
16E-\JJ	16e-\JJ	.	.
16G\LL	16g\LL	8f 8G\	.
16F\	16f\	.	.
16E-\	16e-\	8fJ 8G\	.
16D\JJ	16d\JJ	.	.
16C\LL	16c\LL	8fL 8G\	.
16BBn\	16Bn\	.	.
16D\	16d\	8f 8G\	.
16C\JJ	16c\JJ	.	.
16BB\LL	16Bn</LL	8f 8G\	.
16AA-\	16A-</	.	.
16GG\	16G</	8fJ 8G\	]]
16BB\JJ	16B</JJ	.	.
=80	=80	=80	=80
!	!	!	!LO:HP:a
8C\	8c</	8e- 8G\	<
16CC\LL	16C</LL	(16c\LL	.
16DDn\JJ	16Dn</JJ	16dn\JJ	.
16EE-\LL	16E-</LL	16e-\LL	.
16FF\	16F</	16f\	.
16GG\	16G</	16g\	.
16AAn\JJ	16An</JJ	16an\JJ	.
16BBn\LL	16Bn</LL	16bn\LL	.
16C\	16c</	16cc\)	.
16EE-\	16E-</	16e-\	.
16FF\JJ	16F</JJ	16f\JJ	.
16GG\LL	16G</LL	16g\LL	.
16AAn\	16A</	16a\	.
16BBn\	16B</	16b\	.
16C\JJ	16c</JJ	16cc\JJ	.
!LO:LB:g=original	!LO:LB:g=original	!	!
=81	=81	=81	=81
*8ba	*	*	*
!LO:TX:t=P:problem:oznaczenia 8vb jako "con 8vi":global	!	!	!
4GGG-X\	4G-<X/	(16bn\LL	.
.	.	16cc\	.
.	.	16aan\)	.
.	.	16aa\JJ	.
8FFF\L	8F</L	(16aa\LL	.
.	.	16an\	[
!	!	!	!LO:HP:a
8GGG-\J	8G-</J	16ee-\)	>
.	.	16ee-\JJ	.
4CCC\	4C</	(16ee-\LL	.
.	.	16e-\	.
.	.	16cc\)	.
.	.	16cc\JJ	.
4FFF\	4F</	(16cc\LL	.
.	.	16c\	.
.	.	16a\)	.
.	.	16a\JJ	]]
*X8ba	*	*	*
=82	=82	=82	=82
!LO:N:vis=4	!	!	!
8DD-\	8D-</L	8b-'\	.
!	!	!	!LO:HP:a
16BBB-\LL	16BB-</L	(16B-\LL	<
16CC\JJ	16C</JJ	16c\JJ	.
16DD-\LL	16D-</LL	16d-\LL	.
16EE-\	16E-</	16e-\	.
16FF\	16F</	16f\	.
16GG\JJ	16Gn</JJ	16g\JJ	.
16AAn\LL	16An</LL	16an\LL	.
16BB-\	16B-</	16b-\)	.
16DD-\	16D-</	(16d-\	.
16EE-\JJ	16E-</JJ	16e-\JJ	.
16FF\LL	16F</LL	16f\LL	.
16GG\	16G</	16g\	.
16AA\	16A</	16a\	.
16BB-\JJ	16B-</JJ	16b-\JJ)	[[
!	!	!LO:LB:g=original	!
=83	=83	=83	=83
*8ba	*	*	*
!	!	!	!LO:HP:a
4DDD-\	4D-</	(16an\LL	>
.	.	16b-\	.
.	.	16gg\)	.
.	.	16gg\JJ	.
8CCC\L	8C</L	(16gg\LL	.
.	.	16g\	.
8DDD-\J	8D-</J	16een\)	.
.	.	16ee\JJ	.
4GGGG\	4GG</	(16ee\LL	.
.	.	16en\	.
.	.	16b-\)	.
.	.	16b-\JJ	.
4CCC\	4C</	(16b-\LL	.
.	.	16B-\	.
.	.	16g\)	.
.	.	16g\JJ	]]
=84	=84	=84	=84
!	!	!LO:TUP:a:problem:klamra łukowa	!LO:DY:a
2FFF\	2f 2c 2A- 2F/	12f\L	mf
.	.	12g\	.
.	.	12a-\J	.
*	*	*Xtuplet	*
!	!	!LO:TX:a:i:t=staccato	!
.	.	12g\L	.
.	.	12f\	.
.	.	12e-\J	.
2CCC\	4g 4en 4G\	12d-\L	.
.	.	12c\	.
.	.	12Bn\J	.
.	4cc 4e 4c\	12c\L	.
.	.	12d-\	.
.	.	12c\J	.
=85	=85	=85	=85
*	*^	*	*
2FFF\	8b-L 8c 8B-\	2ryy	12c\L	.
.	.	.	12f\	.
.	8a- 8A-\	.	.	.
.	.	.	12f\J	.
.	8g 8G\	.	12f\L	.
.	.	.	12f\	.
.	8fJ 8F\	.	.	.
.	.	.	12f\J	.
2CCC\	4en 4c 4En\	4ryy	12g\L	.
.	.	.	12cc\	.
.	.	.	12cc\J	.
.	4c/	4En 4C\	12cc\L	.
.	.	.	12cc\	.
.	.	.	12cc\J	.
*	*v	*v	*	*
=86	=86	=86	=86
!	!LO:TX:t=P:problem:mixed beam	!	!
16FFF\LL	16fLL 16F\	4cc\	.
*X8ba	*	*	*
!LO:TX:b:t=loco	!	!	!
16FF\	16F</	.	.
16GG\	16G</	.	.
16AA-\JJ	16A-</JJ	.	.
!	!LO:TX:t=P:problem:mixed beam	!	!
16BB-\LL	16B-</LL	4r	.
16C\	16c</	.	.
16Dn\	16dn</	.	.
16En\JJ	16en\JJ	.	.
16F\LL	16f\LL	2r	.
16G\	16g\	.	.
16A-\	16a-\	.	.
16B-\JJ	16b-\JJ	.	.
16c\LL	16cc\LL	.	.
16dn\	16ddn\	.	.
16en\	16een\	.	.
16f\JJ	16ff\JJ	.	.
!LO:LB:g=original	!LO:LB:g=original	!	!
=87	=87	=87	=87
*8ba	*	*	*
!	!	!LO:TX:a:i:t=risoluto	!
4AAA-\	4A-</	12a-\L	.
.	.	12f\	.
.	.	12f\J	.
*	*	*tremolo	*
!	!	!LO:N:TREM:vis=4.	!
8GGG\L	8G</L	12f\L	.
.	.	12f\	.
8AAA-\J	8A-</J	.	.
.	.	12f\J	.
*	*	*Xtremolo	*
4DDDn\	4Dn</	12f\L	.
.	.	12Bn\	.
.	.	12B\J	.
*	*	*tremolo	*
!	!	!LO:N:TREM:vis=4.	!
4GGG\	4G</	12B\L	.
.	.	12B\	.
.	.	12B\J	.
*X8ba	*	*Xtremolo	*
!	!	!LO:LB:g=original	!
=88	=88	=88	=88
!	!	!	!LO:DY:a
12CC\L	12C</L	2c\	f
12DDn\	12Dn</	.	.
12EE-\J	12E-</J	.	.
12DD\L	12D</L	.	.
12CC\	12C</	.	.
12BBB-\J	12BB-</J	.	.
12AAA-\L	12AA-</L	4dn\	.
12GGG\	12GG</	.	.
12FFF#X\J	12FF#X</J	.	.
12GGG\L	12GG</L	4g\	.
12AAA-\	12AA-</	.	.
12GGG\J	12GG</J	.	.
=89	=89	=89	=89
12GGG\L	12GG</L	8f\L	.
12CC\	12C</	.	.
.	.	8e-\	.
12CC\J	12C</J	.	.
*tremolo	*tremolo	*	*
!LO:N:TREM:vis=4.	!LO:N:TREM:vis=4.	!	!
12CC\L	12C</L	8dn\	.
12CC\	12C</	.	.
.	.	8c\J	.
12CC\J	12C</J	.	.
*Xtremolo	*Xtremolo	*	*
12DDn\L	12Dn</L	4Bn\	.
12GG\	12G</	.	.
12GG\J	12G</J	.	.
*tremolo	*tremolo	*	*
!LO:N:TREM:vis=4.	!LO:N:TREM:vis=4.	!	!
12GG\L	12G</L	4G\	.
12GG\	12G</	.	.
12GG\J	12G</J	.	.
*Xtremolo	*Xtremolo	*	*
=90	=90	=90	=90
!	!	!	!LO:DY:a:t=f.
16CC\LL	16c<LL 16C</	4G\	f
16CC\	16C</	.	.
16DDn\	16Dn</	.	.
16EE-\JJ	16E-</JJ	.	.
16FF\LL	16F</LL	4r	.
16GG\	16G</	.	.
16AAn\	16An</	.	.
16BBn\JJ	16Bn</JJ	.	.
16C\LL	16c\LL	2r	.
16Dn\	16dn\	.	.
16E-\	16e-\	.	.
16F\JJ	16f\JJ	.	.
16G\LL	16g\LL	.	.
16An\	16an\	.	.
16Bn\	16bn\	.	.
16c\JJ	16cc\JJ	.	.
=91	=91	=91	=91
*8ba	*	*	*
4EEE-\	4E-</	12cc\L	.
!	!	!	!LO:DY:a
.	.	12f#X\	f
.	.	12f#\J	.
*	*	*tremolo	*
!	!	!LO:N:TREM:vis=4.	!
8DDDn\L	8Dn</L	12f#\L	.
.	.	12f#\	.
8EEE-\J	8E-</J	.	.
.	.	12f#\J	.
*	*	*Xtremolo	*
4AAAAn\	4AAn</	12f#\L	.
.	.	12c\	.
.	.	12c\J	.
*	*	*tremolo	*
!	!	!LO:N:TREM:vis=4.	!
4DDD\	4D</	12c\L	.
.	.	12c\	.
.	.	12c\J	.
*X8ba	*	*Xtremolo	*
!LO:LB:g=original	!LO:LB:g=original	!	!
=92	=92	=92	=92
!	!	!	!LO:DY:a
4GG\	12G</L	(12G\L	p
!	!	!	!LO:HP:a
.	12G</	12dn\	<
.	12G</J	12bn\J)	.
4GGG\	12G</L	(12b\L	.
.	12G</	12d\	.
.	12G</J	12G\J)	.
4AAn\	12An<L 12G</	(12G\L	.
.	12G</	12e-\	.
.	12G</J	12cc\J)	.
4GGG\	12G</L	(12cc\L	.
.	12G</	12e-\	.
.	12G</J	12G\J)	.
=93	=93	=93	=93
4BB-\	12B-<L 12G</	(12G\L	.
.	12G</	12en\	.
.	12G</J	12cc#X\J)	.
4GGG\	12G</L	(12cc#\L	.
.	12G</	12en\	.
.	12G</J	12G\J)	.
4BBn\	12Bn<L 12G</	(12G\L	.
.	12G</	12f\	.
.	12G</J	12ddn\J)	.
4GGG\	12G</L	(12dd\L	.
.	12G</	12f\	.
.	12G</J	12G\J)	[[
!	!	!LO:LB:g=original	!
=94	=94	=94	=94
!	!	!LO:TX:t=cresc._:problem:dynamics with extention lines	!LO:HP:a:t=cresc._
4C\	12c<L 12G</	(12G\L	<
.	12G</	12f#X\	.
.	12G</J	12dd#X\J)	.
*	*tremolo	*	*
!	!LO:N:TREM:vis=4.	!	!
4GGG\	12G</L	(12dd#\L	.
.	12G</	12f#\	.
.	12G</J	12G\J)	.
*	*Xtremolo	*	*
4C#X\	12c#X<L 12G</	(12G\L	.
.	12G</	12g\	.
.	12G</J	12een\J)	.
*	*tremolo	*	*
!	!LO:N:TREM:vis=4.	!	!
4GGG\	12G</L	(12ee\L	.
.	12G</	12g\	.
.	12G</J	12G\J)	.
*	*Xtremolo	*	*
=95	=95	=95	=95
!LO:SIC:v:s=4Dn\	!LO:SIC:v:n=1:s=12dn<L	!	!
4D-\	12d-<L 12G</	(12G\L	.
.	12G</	12a-X\	.
.	12G</J	12ff\J)	.
*	*tremolo	*	*
!	!LO:N:TREM:vis=4.	!	!
4GGG\	12G</L	(12ff\L	.
.	12G</	12a-\	.
.	12G</J	12G\J)	.
*	*Xtremolo	*	*
4G\	12g<L 12Bn</	(16G\LL	.
.	.	16dn\	.
.	12G</	.	.
.	.	16bn\	.
.	12G</J	.	.
.	.	16gg\JJ)	.
*	*tremolo	*	*
!	!LO:N:TREM:vis=4.	!	!
4GGG\	12G</L	(16gg\LL	.
.	.	16b\	.
.	12G</	.	.
.	.	16d\	[
.	12G</J	.	.
.	.	16G\JJ)	.
*	*Xtremolo	*	*
=96	=9Xtremolo6	=96	=96
*8ba	*	*	*
!	!	!	!LO:DY:a
64CCC\LLLL	1c< 1G< 1E-< 1C<;	(16G\LL	fff
64GGG\	.	.	.
64CCC\	.	.	.
64GGG\JJJJ	.	.	.
*tremolo	*	*	*
!LO:TX:t=P:problem:skrótowy zapis tremola w tt. nr 96-99	!	!	!
!LO:TX:b:t=tremolo	!	!	!
64CCC\LLLLyy	.	16e-\	.
64GGG\yy	.	.	.
64CCC\yy	.	.	.
64GGG\yy	.	.	.
64CCC\yy	.	16cc\	.
64GGG\yy	.	.	.
64CCC\yy	.	.	.
64GGG\yy	.	.	.
64CCC\yy	.	16gg\JJ)	.
64GGG\yy	.	.	.
64CCC\yy	.	.	.
64GGG\JJJJyy	.	.	.
64CCC\LLLLyy	.	(16gg\LL	.
64GGG\yy	.	.	.
64CCC\yy	.	.	.
64GGG\yy	.	.	.
64CCC\yy	.	16cc\	.
64GGG\yy	.	.	.
64CCC\yy	.	.	.
64GGG\yy	.	.	.
64CCC\yy	.	16e-\	.
64GGG\yy	.	.	.
64CCC\yy	.	.	.
64GGG\yy	.	.	.
64CCC\yy	.	16G\JJ)	.
64GGG\yy	.	.	.
64CCC\yy	.	.	.
64GGG\JJJJyy	.	.	.
64CCC\LLLLyy	.	(16G\LL	.
64GGG\yy	.	.	.
64CCC\yy	.	.	.
64GGG\yy	.	.	.
64CCC\yy	.	16e-\	.
64GGG\yy	.	.	.
64CCC\yy	.	.	.
64GGG\yy	.	.	.
64CCC\yy	.	16cc\	.
64GGG\yy	.	.	.
64CCC\yy	.	.	.
64GGG\yy	.	.	.
64CCC\yy	.	16gg\JJ)	.
64GGG\yy	.	.	.
64CCC\yy	.	.	.
64GGG\JJJJyy	.	.	.
64CCC\LLLLyy	.	(16gg\LL	.
64GGG\yy	.	.	.
64CCC\yy	.	.	.
64GGG\yy	.	.	.
64CCC\yy	.	16cc\	.
64GGG\yy	.	.	.
64CCC\yy	.	.	.
64GGG\yy	.	.	.
64CCC\yy	.	16e-\	.
64GGG\yy	.	.	.
64CCC\yy	.	.	.
64GGG\yy	.	.	.
64CCC\yy	.	16G\JJ)	.
64GGG\yy	.	.	.
64CCC\yy	.	.	.
64GGG\JJJJyy	.	.	.
*X8ba	*	*	*
*Xtremolo	*	*	*
!	!	!LO:LB:g=original	!
=97	=97	=97	=97
*8ba	*	*	*
64CCC\LLLL	2dn< 2G< 2Dn</	(16G\LL	.
64GGG\	.	.	.
64CCC\	.	.	.
64GGG\JJJJ	.	.	.
*tremolo	*	*	*
!LO:TX:b:t=tremolo	!	!	!
64CCC\LLLLyy	.	16dn\	.
64GGG\yy	.	.	.
64CCC\yy	.	.	.
64GGG\yy	.	.	.
64CCC\yy	.	16cc\	.
64GGG\yy	.	.	.
64CCC\yy	.	.	.
64GGG\yy	.	.	.
64CCC\yy	.	16gg\JJ)	.
64GGG\yy	.	.	.
64CCC\yy	.	.	.
64GGG\JJJJyy	.	.	.
64CCC\LLLLyy	.	(16gg\LL	.
64GGG\yy	.	.	.
64CCC\yy	.	.	.
64GGG\yy	.	.	.
64CCC\yy	.	16cc\	.
64GGG\yy	.	.	.
64CCC\yy	.	.	.
64GGG\yy	.	.	.
64CCC\yy	.	16d\	.
64GGG\yy	.	.	.
64CCC\yy	.	.	.
64GGG\yy	.	.	.
64CCC\yy	.	16G\JJ)	.
64GGG\yy	.	.	.
64CCC\yy	.	.	.
64GGG\JJJJyy	.	.	.
64CCC\LLLLyy	2g< 2Bn< 2G</	(16G\LL	.
64GGG\yy	.	.	.
64CCC\yy	.	.	.
64GGG\yy	.	.	.
64CCC\yy	.	16dn\	.
64GGG\yy	.	.	.
64CCC\yy	.	.	.
64GGG\yy	.	.	.
64CCC\yy	.	16bn\	.
64GGG\yy	.	.	.
64CCC\yy	.	.	.
64GGG\yy	.	.	.
64CCC\yy	.	16gg\JJ)	.
64GGG\yy	.	.	.
64CCC\yy	.	.	.
64GGG\JJJJyy	.	.	.
64CCC\LLLLyy	.	(16gg\LL	.
64GGG\yy	.	.	.
64CCC\yy	.	.	.
64GGG\yy	.	.	.
64CCC\yy	.	16b\	.
64GGG\yy	.	.	.
64CCC\yy	.	.	.
64GGG\yy	.	.	.
64CCC\yy	.	16d\	.
64GGG\yy	.	.	.
64CCC\yy	.	.	.
64GGG\yy	.	.	.
64CCC\yy	.	16G\JJ)	.
64GGG\yy	.	.	.
64CCC\yy	.	.	.
64GGG\JJJJyy	.	.	.
*Xtremolo	*	*	*
!LO:LB:g=original	!LO:LB:g=original	!	!
=98	=98	=98	=98
*8ba	*	*	*
64CCC\LLLL	4f 4G 4F\	(16G\LL	.
64GGG\	.	.	.
64CCC\	.	.	.
64GGG\JJJJ	.	.	.
*tremolo	*	*	*
!LO:TX:b:t=tremolo	!	!	!
64CCC\LLLLyy	.	16e-\	.
64GGG\yy	.	.	.
64CCC\yy	.	.	.
64GGG\yy	.	.	.
64CCC\yy	.	16cc\	.
64GGG\yy	.	.	.
64CCC\yy	.	.	.
64GGG\yy	.	.	.
64CCC\yy	.	16gg\JJ)	.
64GGG\yy	.	.	.
64CCC\yy	.	.	.
64GGG\JJJJyy	.	.	.
64CCC\LLLLyy	4e- 4F 4E-\	(16gg\LL	.
64GGG\yy	.	.	.
64CCC\yy	.	.	.
64GGG\yy	.	.	.
64CCC\yy	.	16cc\	.
64GGG\yy	.	.	.
64CCC\yy	.	.	.
64GGG\yy	.	.	.
64CCC\yy	.	16e-\	.
64GGG\yy	.	.	.
64CCC\yy	.	.	.
64GGG\yy	.	.	.
64CCC\yy	.	16G\JJ)	.
64GGG\yy	.	.	.
64CCC\yy	.	.	.
64GGG\JJJJyy	.	.	.
64CCC\LLLLyy	4dn< 4G< 4Dn</	(16G\LL	.
64GGG\yy	.	.	.
64CCC\yy	.	.	.
64GGG\yy	.	.	.
64CCC\yy	.	16e-\	.
64GGG\yy	.	.	.
64CCC\yy	.	.	.
64GGG\yy	.	.	.
64CCC\yy	.	16cc\	.
64GGG\yy	.	.	.
64CCC\yy	.	.	.
64GGG\yy	.	.	.
64CCC\yy	.	16gg\JJ)	.
64GGG\yy	.	.	.
64CCC\yy	.	.	.
64GGG\JJJJyy	.	.	.
64CCC\LLLLyy	4c< 4G< 4C</	16gg\LL	.
64GGG\yy	.	.	.
64CCC\yy	.	.	.
64GGG\yy	.	.	.
64CCC\yy	.	16cc\	.
64GGG\yy	.	.	.
64CCC\yy	.	.	.
64GGG\yy	.	.	.
64CCC\yy	.	16e-\	.
64GGG\yy	.	.	.
64CCC\yy	.	.	.
64GGG\yy	.	.	.
64CCC\yy	.	16G\JJ	.
64GGG\yy	.	.	.
64CCC\yy	.	.	.
64GGG\JJJJyy	.	.	.
*X8ba	*	*	*
*Xtremolo	*	*	*
=99	=99	=99	=99
*8ba	*	*	*
64CCC\LLLL	2dn< 2G< 2Dn</	(16G\LL	.
64GGG\	.	.	.
64CCC\	.	.	.
64GGG\JJJJ	.	.	.
*tremolo	*	*	*
!LO:TX:b:t=tremolo	!	!LO:SIC:v:s=16dn\	!
64CCC\LLLLyy	.	16d-\	.
64GGG\yy	.	.	.
64CCC\yy	.	.	.
64GGG\yy	.	.	.
64CCC\yy	.	16cc\	.
64GGG\yy	.	.	.
64CCC\yy	.	.	.
64GGG\yy	.	.	.
64CCC\yy	.	16gg\JJ)	.
64GGG\yy	.	.	.
64CCC\yy	.	.	.
64GGG\JJJJyy	.	.	.
64CCC\LLLLyy	.	(16gg\LL	.
64GGG\yy	.	.	.
64CCC\yy	.	.	.
64GGG\yy	.	.	.
64CCC\yy	.	16cc\	.
64GGG\yy	.	.	.
64CCC\yy	.	.	.
64GGG\yy	.	.	.
!	!	!LO:SIC:v:s=16dn\	!
64CCC\yy	.	16d-\	.
64GGG\yy	.	.	.
64CCC\yy	.	.	.
64GGG\yy	.	.	.
64CCC\yy	.	16G\JJ)	.
64GGG\yy	.	.	.
64CCC\yy	.	.	.
64GGG\JJJJyy	.	.	.
64CCC\LLLLyy	2G< 2GG</	(16G\LL	.
64GGG\yy	.	.	.
64CCC\yy	.	.	.
64GGG\yy	.	.	.
64CCC\yy	.	16dn\	.
64GGG\yy	.	.	.
64CCC\yy	.	.	.
64GGG\yy	.	.	.
64CCC\yy	.	16bn\	.
64GGG\yy	.	.	.
64CCC\yy	.	.	.
64GGG\yy	.	.	.
64CCC\yy	.	16gg\JJ)	.
64GGG\yy	.	.	.
64CCC\yy	.	.	.
64GGG\JJJJyy	.	.	.
64CCC\LLLLyy	.	(16gg\LL	.
64GGG\yy	.	.	.
64CCC\yy	.	.	.
64GGG\yy	.	.	.
64CCC\yy	.	16bn\	.
64GGG\yy	.	.	.
64CCC\yy	.	.	.
64GGG\yy	.	.	.
64CCC\yy	.	16d\	.
64GGG\yy	.	.	.
64CCC\yy	.	.	.
64GGG\yy	.	.	.
64CCC\yy	.	16G\JJ)	.
64GGG\yy	.	.	.
64CCC\yy	.	.	.
64GGG\JJJJyy	.	.	.
*X8ba	*	*	*
*Xtremolo	*	*	*
!	!	!LO:LB:g=original	!
=100	=100	=100	=100
*8ba	*	*	*
!LO:TX:t=P:problem:oznaczenie con 8vi bez linii	!	!	!LO:DY:a
12CC\L	12c</L	(16G\LL	ff
.	.	16e-\	.
12DDn\	12dn</	.	.
.	.	16cc\	.
12EE-\J	12e-</J	.	.
.	.	16gg\JJ)	.
12DD\L	12d</L	(16gg\LL	.
.	.	16cc\	.
12CC\	12c</	.	.
!	!	!LO:TX:a:i:t=bis	!
.	.	16e-\	.
12BBB-\J	12B-</J	.	.
.	.	16G\JJ)	.
12AAA-\L	12A-</L	(16G\LL	.
.	.	16e-\	.
12GGG\	12G</	.	.
.	.	16cc\	.
12FFF#X\J	12F#X</J	.	.
.	.	16gg\JJ)	.
12GGG\L	12G</L	(16gg\LL	.
.	.	16cc\	.
12AAA-\	12A-</	.	.
.	.	16e-\	.
12GGG\J	12G</J	.	.
.	.	16G\JJ)	.
=101	=101	=101	=101
!	!	!LO:TX:t=P:problem:fragment oznaczony znakiem repetycji	!
12GGG\L	12G</L	(y16G\LLyy	.
.	.	16e-\yy	.
12CC\	12c</	.	.
.	.	16cc\yy	.
12CC\J	12c</J	.	.
.	.	16gg\JJ)yy	.
*tremolo	*tremolo	*	*
!LO:N:TREM:vis=4.	!LO:N:TREM:vis=4.	!	!
12CC\L	12c</L	(y16gg\LLyy	.
.	.	16cc\yy	.
12CC\	12c</	.	.
.	.	16e-\yy	.
12CC\J	12c</J	.	.
*Xtremolo	*Xtremolo	*	*
.	.	16G\JJ)yy	.
*rep	*rep	*	*
12GGG\L	12G</L	(y16G\LLyy	.
.	.	16e-\yy	.
12CC\	12c</	.	.
.	.	16cc\yy	.
12CC\J	12c</J	.	.
.	.	16gg\JJ)yy	.
*tremolo	*tremolo	*	*
!LO:N:TREM:vis=4.	!LO:N:TREM:vis=4.	!	!
12CC\L	12c</L	(y16gg\LLyy	.
.	.	16cc\yy	.
12CC\	12c</	.	.
.	.	16e-\yy	.
12CC\J	12c</J	.	.
.	.	16G\JJ)yy	.
*Xrep	*Xrep	*	*
*Xtremolo	*Xtremolo	*	*
=102	=102	=102	=102
12CC\L	12c</L	(16A-\LL	.
.	.	16f\	.
12BBB-\	12B-</	.	.
.	.	16cc\	.
12AAA-\J	12A-</J	.	.
.	.	16aa-\JJ)	.
12CC\L	12c</L	(16aa-\LL	.
.	.	16cc\	.
12BBB-\	12B-</	.	.
.	.	16f\	.
12AAA-\J	12A-</J	.	.
.	.	16A-\JJ)	.
*rep	*rep	*	*
12CC\L	12c</L	(16A-\LL	.
.	.	16f\	.
12BBB-\	12B-</	.	.
.	.	16cc\	.
12AAA-\J	12A-</J	.	.
.	.	16aa-\JJ)	.
12CC\L	12c</L	(16aa-\LL	.
.	.	16cc\	.
12BBB-\	12B-</	.	.
.	.	16f\	.
12AAA-\J	12A-</J	.	.
.	.	16A-\JJ)	.
*Xrep	*Xrep	*	*
=103	=103	=103	=103
!	!	!	!LO:DY:a:t=mf.
12GGG\L	12G</L	(16G\LL	mf
.	.	16e-\	.
12CCC\	12C</	.	.
.	.	16cc\	.
12CCC\J	12C</J	.	.
.	.	16gg\JJ)	.
*tremolo	*tremolo	*	*
!LO:N:TREM:vis=4.	!LO:N:TREM:vis=4.	!	!
12CCC\L	12C</L	(16gg\LL	.
.	.	16cc\	.
12CCC\	12C</	.	.
.	.	16e-\	.
12CCC\J	12C</J	.	.
.	.	16G\JJ)	.
*	*	*rep	*
!LO:N:TREM:vis=4.	!LO:N:TREM:vis=4.	!	!
12CCC\L	12C</L	(16G\LL	.
.	.	16e-\	.
12CCC\	12C</	.	.
.	.	16cc\	.
12CCC\J	12C</J	.	.
.	.	16gg\JJ)	.
!LO:N:TREM:vis=4.	!LO:N:TREM:vis=4.	!	!
12CCC\L	12C</L	(16gg\LL	.
.	.	16cc\	.
12CCC\	12C</	.	.
.	.	16e-\	.
12CCC\J	12C</J	.	.
.	.	16G\JJ)	.
*X8ba	*	*Xrep	*
*Xtremolo	*Xtremolo	*	*
!LO:LB:g=original	!LO:LB:g=original	!LO:LB:g=original	!
=104	=104	=104	=104
*8ba	*	*	*
!	!	!	!LO:DY:a:t=ff.
1DDD-X	1D-X<	(16G\LL	ff
.	.	16f\	.
.	.	16bn\	.
.	.	16ff\JJ)	.
.	.	(16ff\LL	.
.	.	16b\	.
.	.	16f\	.
.	.	16G\JJ)	.
!	!	!	!LO:DY:a:t=mf.
.	.	(16G\LL	mf
.	.	16f\	.
.	.	16bn\	.
.	.	16ff\JJ)	.
.	.	(16ff\LL	.
.	.	16b\	.
.	.	16f\	.
.	.	16G\JJ)	.
=105	=105	=105	=105
*	*^	*	*
!	!LO:TX:t=P:problem:takt nr 105 zapisano w górnej pięciolinii [8va -> błędne przenoszenie]	!	!	!LO:DY:a
8CCC\	2ryy	8C</	(16G\LL	p
.	.	.	16en\	.
8ryy	.	8r<	16cc\	.
.	.	.	16een\JJ)	.
4ryy	.	4ryy	16ee\LL	.
.	.	.	16cc\	.
.	.	.	16e\	.
.	.	.	16G\JJ	.
4ryy	4ggt\	4eent\	(16G\LL	.
.	.	.	16e\	.
.	.	.	16cc\	.
.	.	.	16ee\JJ)	.
.	32qqff\LLL	32qqdd#X\LLL	.	.
.	32qqgg\JJJ	32qqeen\JJJ	.	.
8ryy	8ccc 8cc\	8ryy	(16ee\LL	.
.	.	.	16cc\	.
8CCC\	8r	8C</	16e\	.
.	.	.	16G\JJ)	.
*	*v	*v	*	*
=106	=106	=106	=106
1DDD-X	1D-X<	(16G^^\LL	.
.	.	16f\	.
.	.	16bn\	.
.	.	16ff\JJ)	.
.	.	(16ff\LL	.
.	.	16b\	.
.	.	16f\	.
.	.	16G\JJ)	.
!	!	!LO:LB:g=original	!
.	.	(16G\LL	.
.	.	16f\	.
.	.	16bn\	.
.	.	16ff\JJ)	.
.	.	(16ff\LL	.
.	.	16b\	.
.	.	16f\	.
.	.	16G\JJ)	.
=107	=107	=107	=107
*	*^	*	*
!	!LO:TX:t=P:problem:takt nr 107 zapisano w górnej pięciolinii [8va -> błędne przenoszenie]	!	!	!LO:DY:a
8CCC\	4ryy	8C</	(16G\LL	pp
.	.	.	16en\	.
8ryy	.	8ryy	16cc\	.
.	.	.	16een\JJ)	.
4ryy	4ggt\	4eent\	(16ee\LL	.
.	.	.	16cc\	.
.	.	.	16en\	.
.	.	.	16G\JJ)	.
.	32qqff#X\LLL	32qqdd#X\LLL	.	.
.	32qqgg\JJJ	32qqee\JJJ	.	.
*	*	*	*rep	*
2ryy	8ccc 8cc\	4ryy	(16G\LL	.
.	.	.	16en\	.
.	8r	.	16cc\	.
.	.	.	16een\JJ)	.
.	4ggt\	4eeT\	(16ee\LL	.
.	.	.	16cc\	.
.	.	.	16en\	.
.	.	.	16G\JJ)	.
.	32qqff#\LLL	32qqdd#\LLL	.	.
.	32qqgg\JJJ	32qqee\JJJ	.	.
*X8ba	*	*	*Xrep	*
*	*v	*v	*	*
=108	=108	=108	=108
4ryy	8ccc 8cc\	(12G\L	.
.	.	12en\	.
.	8r	.	.
.	.	12cc\J)	.
!LO:TX:b:i:t=senza 8vi.	!	!LO:TX:a:t=bis	!
12CC\L	12C</L	(12cc\L	.
12CC\	12C</	12en\	.
12CC\J	12C</J	12G\J)	.
4CC\	4C</	(12G\L	.
.	.	12e\	.
.	.	12cc\J)	.
4CC\	4C</	(12cc\L	.
.	.	12e\	.
.	.	12G\J)	.
=109	=109	=109	=109
!LO:TX:a:i:t=lunga	!	!LO:TX:t=P:problem:zbędne powtórzenie taktu nr 109	!
!LO:N:vis=1	!LO:N:vis=1	!	!
0CC	0C<;	(y12G\Lyy	.
.	.	12en\yy	.
.	.	12cc\J)yy	.
.	.	(y12cc\Lyy	.
.	.	12en\yy	.
.	.	12G\J)yy	.
.	.	(y12G\Lyy	.
.	.	12e\yy	.
.	.	12cc\J)yy	.
.	.	(y12cc\Lyy	.
.	.	12e\yy	.
.	.	12G\J)yy	.
=110-	=110-	=110	=110
!	!	!	!LO:DY:a
.	.	1cc 1en 1G;	pp
!	!	!LO:PB:g=original	!
=111	=111	=111	=111
!	!	!LO:TX:t=ppp-:dur=3w:ext=c:problem:dynamics with extention lines	!LO:DY:a:t=ppp-
8BBB-\	8BB-</	(12G\L	ppp
.	.	12e-X\	.
8ryy	8r	.	.
.	.	12dd-X\J)	.
4gg>t\	4bb-T\	(12dd-\L	.
.	.	12e-\	.
.	.	12G\J)	.
32qqff#X>\LLL	32qqaan\LLL	.	.
32qqgg>\JJJ	32qqbb-\JJJ	.	.
4ryy	4eee- 4ee-\	(12G\L	.
.	.	12e-\	.
.	.	12dd-\J)	.
4gg>t\	4bb-T\	(12dd-\L	.
.	.	12e-\	.
.	.	12G\J)	.
32qqff#>\LLL	32qqaa\LLL	.	.
32qqgg>\JJJ	32qqbb-\JJJ	.	.
!LO:LB:g=original	!LO:LB:g=original	!	!
=112	=112	=112	=112
4ryy	8eee- 8ee-\	(12G\L	.
.	.	12e-\	.
.	8r	.	.
.	.	12dd-\J)	.
12EE-\L	12E-</L	(12dd-\L	.
12EE-\	12E-</	12e-\	.
12EE-\J	12E-</J	12G\J)	.
4EE-\	4E-</	(12G\L	.
.	.	12e-\	.
.	.	12dd-\J)	.
4EE-\	4E-</	(12dd-\L	.
.	.	12e-\	.
.	.	12G\J)	.
=113	=113	=113	=113
!LO:TX:a:i:t=lunga	!	!	!
!LO:N:vis=1	!LO:N:vis=1	!	!
0EE-	0E-<;	(12G\L	.
.	.	12e-\	.
.	.	12dd-\J)	.
.	.	(12dd-\L	.
.	.	12e-\	.
.	.	12G\J)	.
.	.	(12G\L	.
.	.	12e-\	.
.	.	12dd-\J)	.
.	.	(12dd-\L	.
.	.	12e-\	.
.	.	12G\J)	.
=114-	=114-	=114	=114
!	!	!	!LO:DY:a:t=ppp.
.	.	1dd- 1e- 1G;	ppp
.	4qqe-< 4qqE-</	.	.
!	!	!LO:LB:g=original	!
=115	=115	=115	=115
!	!	!LO:TX:a:t=8	!
2E- 2AA-\	2a- 2c 2A-\	1r	.
2E- 2EE-\	4b- 4g 4B-\	.	.
.	4ee- 4g 4e-\	.	.
=116	=116	=116	=116
2E- 2AA-\	8dd-L N[8e- 8d-\	1r	.
.	8cc 8e- 8c\	.	.
.	8b- 8e- 8B-\	.	.
.	8a-J 8e-N] 8A-\	.	.
4EE-\	4b- 4e- 4G\	.	.
4E-\	4e-\	.	.
=117	=117	=117	=117
2E- 2AA-\	4a- 4c 4A-\	1r	.
.	8gL 8G\	.	.
.	8a-J 8A-\	.	.
2E- 2EE-\	4b- [4g 4B-\	.	.
.	4ee- 4g] 4e-\	.	.
=118	=118	=118	=118
*	*^	*	*
2E- 2AA-\	8dd-L 8d-\	2e-/	1r	.
.	8cc 8c\	.	.	.
.	8b- 8B-\	.	.	.
.	8a-J 8A-\	.	.	.
!	!LO:TX:t=P:problem:obiegnik z kasownikiem	!	!	!
4EE-\	4.b- 4.e- 4.GS\	2ryy	.	.
4r	.	.	.	.
.	8cc\	.	.	.
*	*v	*v	*	*
=119	=119	=119	=119
2A- 2F 2FF\	4dd- 4d-\	1r	.
.	8ffL 8f\	.	.
.	8aa-J 8a-\	.	.
4B- 4E- 4GG\	4ee- 4e-\	.	.
4A- 4E- 4AA-\	4cc 4c\	.	.
!LO:PB:g=original	!LO:PB:g=original	!	!
=120	=120	=120	=120
2A- 2F 2FF\	8dd-L 8d-\	1r	.
.	8eeny 8en\	.	.
.	8ff 8f\	.	.
.	8aa-J 8a-\	.	.
!	!LO:SIC:v:s=4ee- 4e-\	!	!
4B- 4E- 4GG\	4ee 4e\	.	.
4A- 4E- 4AA-\	8dd-L 8d-\	.	.
.	8ccJ 8c\	.	.
=121	=121	=121	=121
*	*^	*	*
2F 2D-\	4b- 4B-\	2f/	1r	.
.	4b- 4B-\	.	.	.
2F 2Dn\	4bn 4Bn\	2f/	.	.
.	4a- 4A-\	.	.	.
*	*v	*v	*	*
=122	=122	=122;	=122
1G 1E- 1BB- 1EE-;	1ee- 1g 1B-;	2r	.
.	.	4r	.
.	.	4e-/	.
=123	=123	=123	=123
12A-\L	12a-\L	4a-|\	.
12B-\	12b-\	.	.
12c\J	12cc\J	.	.
12d-\L	12dd-\L	8g\L	.
12c\	12cc\	.	.
.	.	8a-\J	.
12B-\J	12b-\J	.	.
12A-\L	12a-\L	4b-\	.
12G\	12g\	.	.
12F\J	12f\J	.	.
12E-\L	12e-\L	4ee-\	.
12D-\	12d-\	.	.
12BB-\J	12B-\J	.	.
=124	=124	=124	=124
12AA-\L	12A-\L	8dd-\L	.
12BB-\	12B-\	.	.
.	.	8cc\	.
12C\J	12c\J	.	.
12D-\L	12d-\L	8b-\	.
12C\	12c\	.	.
.	.	8a-\J	.
12BB-\J	12B-\J	.	.
12AA-\L	12A-</L	4b-\	.
12GG\	12G</	.	.
12FF\J	12F</J	.	.
12EE-\L	12E-</L	4e-\	.
12DD-\	12D-</	.	.
12BBB-\J	12BB-</J	.	.
=125	=125	=125	=125
12AAA-\L	12AA-</L	4a-\	.
12AA-\	12A-/	.	.
12AA-\J	12A-/J	.	.
*tremolo	*tremolo	*	*
!LO:N:TREM:vis=4.	!LO:N:TREM:vis=4.	!	!
12AA-\L	12A-/L	8g\L	.
12AA-\	12A-/	.	.
.	.	8a-\J	.
12AA-\J	12A-/J	.	.
*Xtremolo	*Xtremolo	*	*
!	!LO:TX:t=P:problem:mixed beam	!	!
12GG\L	12G</L	4b-\	.
12G\	12g\	.	.
12G\J	12g\J	.	.
*tremolo	*tremolo	*	*
!LO:N:TREM:vis=4.	!LO:N:TREM:vis=4.	!	!
12G\L	12g\L	4ee-\	.
12G\	12g\	.	.
12G\J	12g\J	.	.
*Xtremolo	*Xtremolo	*	*
=126	=126	=126	=126
!	!LO:TX:t=P:problem:mixed beam	!	!
12A-\L	12a-/L	8dd-\L	.
12AA-\	12A-</	.	.
.	.	8cc\	.
12AA-\J	12A-</J	.	.
12BB-\L	12B-</L	8b-\	.
12BBB-\	12D-</	.	.
.	.	8a-\J	.
12BBB-\J	12D-</J	.	.
!LO:LB:g=original	!LO:LB:g=original	!	!
8EE-\	8E-</	4b-\	.
*8ba	*	*	*
16F\LL	16f\LL	.	.
16E-\JJ	16e-\JJ	.	.
16D-\LL	16d-\LL	16g\LL	.
16C\	16c\	16a-\	.
16BB-\	16B-\	16b-\	.
16AA-\JJ	16A-\JJ	16cc\JJ	.
*X8ba	*	*	*
!	!	!LO:LB:g=original	!
=127	=127	=127	=127
8GG/	8G\	4dd-\	.
16F\LL	16f\LL	.	.
16E-\JJ	16e-\JJ	.	.
!	!	!	!LO:DY:a:t=f.
16D-\LL	16d-\LL	16g\LL	f
16C\	16c\	16a-\	.
16BB-\	16B-\	16b-\	.
16AA-\JJ	16A-\JJ	16cc\JJ	.
8GG\	8G\	4dd-^^\	.
16F-X\LL	16f-X\LL	.	.
16E-\JJ	16e-\JJ	.	.
16D-\LL	16d-\LL	16g\LL	.
16C\	16c\	16a-\	.
16BB-\	16B-\	16b-\	.
16AA-\JJ	16A-\JJ	16cc\JJ	.
=128	=128	=128	=128
12GG\L	12G\L	16dd-\LL	.
!	!	!	!LO:DY:a
.	.	16cc\	p
12G\	12g\	.	.
.	.	16b-\	.
12G\J	12g\J	.	.
.	.	16a-\JJ	.
12AA-\L	12A-\L	16g\LL	.
.	.	16a-\	.
12A-\	12a-\	.	.
.	.	16cc\	.
12A-\J	12a-\J	.	.
.	.	16a-\JJ	.
!	!	!LO:TX:a:i:t=dolce:dur=3h:ext=cd	!
12BB-\L	12B-\L	(12g\L	.
12B-\	12b-\	12a-\	.
12B-\J	12b-\J	12ff\J)	.
12BBB-\L	12BB-</L	(12en\L	.
12BB-\	12B-</	12f\	.
12BB-\J	12B-</J	12ddn\J)	.
=129	=129	=129	=129
12DDn\L	12Dn</L	16b-\LL	.
.	.	16a-\	.
12BBn\	12Bn</	.	.
.	.	16g-X\	.
12BB\J	12B</J	.	.
.	.	16f\JJ	.
12EE-\L	12E-</L	16dn\LL	.
.	.	16e-\	.
12E-\	12e-</	.	.
.	.	16g-\	.
12E-\J	12e-</J	.	.
.	.	16e-\JJ	.
!	!LO:TX:t=P:problem:mixed beam	!	!
12AA-\L	12A-</L	12f\L	.
12A-\	12a-\	12g-X\	.
12A-\J	12a-\J	12ee-\J	.
12AAA-\L	12AA-</L	12dn\L	.
12AA-\	12A-</	12e-\	.
12AA-\J	12A-</J	12cc\J	.
!	!	!LO:LB:g=original	!
=130	=130	=130	=130
!	!	!	!LO:DY:a
12D-\L	12d-\L	4dd-\	pp
12E-\	12e-\	.	.
12F\J	12f\J	.	.
12G-X\L	12g-X\L	8cc\L	.
12F\	12f\	.	.
.	.	8dd-\J	.
12E-\J	12e-\J	.	.
12D-\L	12d-\L	4ee-\	.
12C\	12c\	.	.
12BB-\J	12B-\J	.	.
!	!LO:TX:t=P:problem:mixed beam	!	!
12AA-\L	12A-\L	4aa-\	.
12GG-X\	12G-X\	.	.
12EE-\J	12E-</J	.	.
=131	=131	=131	=131
!	!	!LO:TX:a:t=1:color=grey	!
4.AA- 4.DD-\	4.A-< 4.F</	1r	.
8AA- 8DD-\	8d-< 8F</	.	.
4AA- 4DD-\	4A-< 4F</	.	.
4AA- 4DD-\	4F< 4D-</	.	.
!LO:LB:g=original	!LO:LB:g=original	!	!
=132	=132	=132	=132
12E-\L	12e-\L	8ee-\L	.
12F\	12f\	.	.
!	!	!	!LO:DY:a:t=f.
.	.	8dd-\	f
12G-X\J	12g-X\J	.	.
12A-\L	12a-\L	8cc\	.
12G-\	12g-\	.	.
.	.	8dd-\J	.
12F\J	12f\J	.	.
12E-\L	12e-\L	4ee-\	.
12D-\	12d-\	.	.
12C\J	12c\J	.	.
12BB-\L	12B-\L	4aa-\	.
12AA-\	12A-\	.	.
12A-\J	12a-\J	.	.
=133	=133	=133	=133
12F\L	12f\L	12aa-\L	.
12G-X\	12g-X\	12bb-\	.
12A-\J	12a-\J	12ccc\J	.
!	!	!LO:TX:t=cresc-:problem:dynamics with extention lines	!LO:HP:a:t=cresc-
12B-\L	12b-\L	12ddd-\L	<
12A-\	12a-\	12ccc\	.
12G-\J	12g-\J	12bb-\J	.
12F\L	12f\L	12aa-\L	.
12E-\	12e-\	12gg-X\	.
12D-\J	12d-\J	12ff\J	.
12C\L	12c\L	12ee-\L	.
12BB-\	12B-\	12dd-\	.
12AA-\J	12A-\J	12cc\J	.
=134	=134	=134	=134
12GG-X\L	12G-X</L	12b-\L	.
12AA-\	12A-</	12cc\	.
12BB-\J	12B-</J	12dd-\J	.
12C\L	12c</L	12ee-\L	.
12BB-\	12B-</	12dd-\	.
12AA-\J	12A-</J	12cc\J	.
12GG-\L	12G-</L	12b-\L	.
12FF\	12F</	12a-\	.
12EE-\J	12E-</J	12g-X\J	.
12DD-\L	12D-</L	12f\L	.
12CC\	12C</	12e-\	.
12BBB-\J	12BB-</J	12d-\J	[[
!	!	!LO:LB:g=original	!
=135	=135	=135	=135
!	!	!LO:TX:t=cresc_ e risoluto:problem:dynamics with extention lines	!LO:HP:a:t=cresc_ e risoluto
12AAA-\L	12AA-</L	4c\	<
12AA-\	12A-</	.	.
12AA-\J	12A-</J	.	.
12BBB-\L	12BB-</L	4d-\	.
12AA-\	12A-</	.	.
12AA-\J	12A-</J	.	.
12CC-X\L	12C-X</L	4e-\	.
12AA-\	12A-</	.	.
12AA-\J	12A-</J	.	.
12CCn\L	12Cn</L	4en\	.
12AA-\	12A-</	.	.
12AA-\J	12A-</J	.	.
=136	=136	=136	=136
4AA- 4DD-\	16fLL 16F\	4f\	.
.	16a-\	.	.
.	16d-\	.	.
.	16A-\JJ	.	.
4r	16F\LL	4e-\	.
.	16A-\	.	.
.	16d-\	.	.
.	16a-\JJ	.	.
4r	8a-L 8A-\	8f\L	.
.	8g-X 8G-X\	8e-\	.
4AA- 4AAA-\	8f 8F\	8d-\	.
.	8e-J 8E-\	8c\J	.
=137	=137	=137	=137
4AA- 4DD-\	16d-LL 16D-\	2d-/	.
.	16f\	.	.
.	16A-\	.	.
.	16F\JJ	.	.
4r	16D-/LL	.	.
.	16F/	.	.
.	16A-/	.	.
.	16d-/JJ	.	.
!LO:LB:g=original	!LO:LB:g=original	!	!
4r	8a-L 8A-\	8f^^\L	[
.	8g-X 8G-X\	8e-\	.
!LO:TX:b:t=d	!	!	!
4DDn\	8f 8F\	8dn\	.
.	8b-J 8B-\	8B-\J	.
=138	=138	=138	=138
!	!	!LO:TX:t=P:problem:skreślony takt	!
4BB- 4EE-\	16g-XLL 16G-X\	2e-\	.
.	16b-\	.	.
.	16e-\	.	.
.	16B-\JJ	.	.
4r	16G-\LL	.	.
.	16B-\	.	.
.	16e-\	.	.
.	16g-\JJ	.	.
4r	8b-L 8B-\	8g-X^^\L	.
.	8a- 8A-\	8f\	.
4EEn\	8gn 8Gn\	8en\	.
.	8ccJ 8c\	8c\J	.
!	!	!LO:LB:g=original	!
=139	=139	=139	=139
!	!	!LO:TX:t=P:problem:skreślony takt	!
4C 4FF\	16a-LL 16A-\	2f\	.
.	16cc\	.	.
.	16f\	.	.
.	16c\JJ	.	.
4r	16A-\LL	.	.
.	16c\	.	.
.	16f\	.	.
.	16a-\JJ	.	.
4r	8ccL 8c\	8a-^^\L	.
.	8b- 8B-\	8g\	.
4BB- 4BBB-\	8a- 8A-\	8f\	.
.	8fJ 8F\	8dn\J	.
=140	=140	=140	=140
!	!	!	!LO:DY:a
2BB- 2EE-\	4e- 4E-\	16e-/LL	p
.	.	16dn/	.
.	.	16c/	.
.	.	16B-/JJ	.
.	4g 4e-\	16e-/LL	.
.	.	16d/	.
.	.	16c/	.
.	.	16B-/JJ	.
*	*	*rep	*
2BB- 2BBB-\	4f 4e-\	16e-/LL	.
.	.	16d/	.
.	.	16c/	.
.	.	16B-/JJ	.
.	4b- 4dn\	16e-/LL	.
.	.	16d/	.
.	.	16c/	.
.	.	16B-/JJ	.
*	*	*Xrep	*
=141	=141	=141	=141
!	!	!	!LO:DY:a
2BB- 2EE-\	4e-\	16ee-\LL	pp
.	.	16ddn\	.
.	.	16cc\	.
.	.	16b-\JJ	.
.	4g 4e-\	16ee-\LL	.
.	.	16dd\	.
.	.	16cc\	.
.	.	16b-\JJ	.
*	*	*rep	*
2BB- 2BBB-\	4f 4e-\	16ee-\LL	.
.	.	16dd\	.
.	.	16cc\	.
.	.	16b-\JJ	.
.	4b- 4dn\	16ee-\LL	.
.	.	16dd\	.
.	.	16cc\	.
.	.	16b-\JJ	.
*	*	*Xrep	*
=142	=142	=142	=142
8EE-\L	4e-\	2ee-TT\	.
8FF\	.	.	.
8GG\	4g 4e-\	.	.
8AA-\J	.	.	.
8BB-\L	4g 4e-\	2ee-TT\	.
8C\	.	.	.
8Dn\	4g 4e-\	.	.
8E-\J	.	.	.
=143	=143	=143	=143
8F\L	4f 4e-\	2ee-TT\	.
8E-\	.	.	.
8D-X\	4f 4e-\	.	.
8C\J	.	.	.
8BB-\L	4f 4d-\	2ee-TT\	.
8AA-\	.	.	.
8GG\	4b- 4d-\	.	.
8FF\J	.	.	.
=144	=144	=144	=144
8EE-\L	4b- 4d-\	2ee-TT\	.
8FF\	.	.	.
8GG\	4f 4d-\	.	.
8AA-\J	.	.	.
8BB-\L	4f 4d-\	2ee-TT\	.
8C\	.	.	.
8D-\	4f 4d-\	.	.
8E-\J	.	.	.
!LO:LB:g=original	!LO:LB:g=original	!LO:LB:g=original	!
=145	=145	=145	=145
8F\L	4e- 4d-\	2ee-TT\	.
8G\	.	.	.
8A-\	4a- 4c\	.	.
8G\J	.	.	.
8F\L	4dn 4c\	2ee-TT\	.
8E-\	.	.	.
8Dn\	4a- 4Bn\	.	.
8AA-\J	.	.	.
=146	=146	=146	=146
4EE-\	4a- 4B-\	2ee-TT\	.
4r	4g 4B-\	.	.
4EE-\	4g 4Bn\	2ee-TT\	.
4r	4a- 4c\	.	.
.	.	32qqddn\LLL	.
.	.	32qqee-\JJJ	.
=147	=147	=147	=147
4AA-\	8a- 8c\	8aa-|\	.
.	8r	8r	.
4r	4cct/	4ee-T\	.
.	32qqbn/LLL	32qqddn\LLL	.
.	32qqcc/JJJ	32qqee-\JJJ	.
4c 4AA-\	8a-/	8aa-|\	.
.	8r	8r	.
4r	4cct/	4ee-T\	.
.	32qqbn/LLL	32qqdd\LLL	.
.	32qqcc/JJJ	32qqee-\JJJ	.
=148	=148	=148	=148
16A-\	16ryy	12aa-\L	.
16ryy	16c/LL	.	.
.	.	12bb-\	.
8ryy	16a-/	.	.
.	.	12ccc\J	.
.	16ee-/JJ	.	.
16ee->\	16ryy	12bb-\L	.
16ryy	16a-/LL	.	.
.	.	12aa-\	.
16ryy	16c/JJ	.	.
.	.	12gg\J	.
16A-\	16ryy	.	.
*rep	*rep	*	*
16A-\	16ryy	12ff\L	.
16ryy	16c/LL	.	.
.	.	12ee-\	.
8ryy	16a-/	.	.
.	.	12ddn\J	.
.	16ee-/JJ	.	.
16ee->\	16ryy	12ee-\L	.
16ryy	16a-/LL	.	.
.	.	12ff\	.
16ryy	16c/JJ	.	.
.	.	12ee-\J	.
16A-\	16ryy	.	.
*Xrep	*Xrep	*	*
=149	=149	=149	=149
*	*^	*	*
4B- 4EE-\	8ee- 8g\	2ryy	8bb-\	.
.	8r	.	8r	.
4r	4ggt\	.	4ee-TT\	.
.	32qqff#X\LLL	.	32qqddn\LLL	.
.	32qqgg\JJJ	.	32qqee-\JJJ	.
4B- 4E-\	8ee-/	8g\	8bb-\	.
.	8r	8ryy	8r	.
4r	4ggt\	4ryy	4ee-TT\	.
.	32qqff#\LLL	.	32qqddn\LLL	.
.	32qqgg\JJJ	.	32qqee-\JJJ	.
*	*v	*v	*	*
!	!	!LO:LB:g=original	!
=150	=150	=150	=150
16E-\	16ryy	12bb-\L	.
16ryy	16g/LL	.	.
.	.	12ccc\	.
8ryy	16ee-/	.	.
.	.	12ddd-\J	.
.	16bb-/JJ	.	.
16bb->\	16ryy	12ccc\L	.
16ryy	16ee-/LL	.	.
.	.	12bb-\	.
16ryy	16g/JJ	.	.
.	.	12aa-\J	.
16E-\	16ryy	.	.
*rep	*rep	*	*
16E-\	16ryy	12gg\L	.
16ryy	16g/LL	.	.
.	.	12ff\	.
8ryy	16ee-/	.	.
.	.	12ee-\J	.
.	16bb-/JJ	.	.
16bb->\	16ryy	12ddn\L	.
16ryy	16ee-/LL	.	.
.	.	12ff\	.
16ryy	16g/JJ	.	.
.	.	12ee-\J	.
16E-\	16ryy	.	.
*Xrep	*Xrep	*	*
=151	=151	=151	=151
*^	*	*	*
8c 8AA-\	4ryy	8aa- 8ee- 8a-\	12ee-\L	.
.	.	.	12aa-\	.
8r	.	8r	.	.
.	.	.	12aa-\J	.
4cc>t\	4r	4ee-T\	12aa-\L	.
.	.	.	12aa-\	.
.	.	.	12aa-\J	.
32qqbn>\LLL	.	32qqddn\LLL	.	.
32qqcc>\JJJ	.	32qqee-\JJJ	.	.
*	*	*	*rep	*
4ryy	2ryy	8aa- 8a-\	12ee-\L	.
.	.	.	12aa-\	.
.	.	8r	.	.
.	.	.	12aa-\J	.
4cc>t\	.	4ee-T\	12aa-\L	.
.	.	.	12aa-\	.
.	.	.	12aa-\J	.
32qqb>\LLL	.	32qqdd\LLL	.	.
32qqcc>\JJJ	.	32qqee-\JJJ	.	.
*	*	*	*Xrep	*
*v	*v	*	*	*
!LO:PB:g=original	!LO:PB:g=original	!	!
=152	=152	=152	=152
.	.	(>32qqaa-\LLL	.
.	.	32qqbb-\JJJ	.
16a->\	16ryy	12ccc\L)	.
16ryy	16cc/LL	.	.
.	.	12bb-\	.
8ryy	16aa-/	.	.
.	.	12aa-\J	.
.	16eee-/JJ	.	.
!	!	!LO:TX:t=cresc_:problem:dynamics with extention lines	!LO:HP:a:t=cresc_
16ee->\	16ryy	12gg-X\L	<
16ryy	16aa-/LL	.	.
.	.	12ff\	.
16ryy	16cc/JJ	.	.
.	.	12ee-\J	.
16a->\	16ryy	.	.
*rep	*rep	*	*
16a->\	16ryy	12dd-\L	.
16ryy	16cc/LL	.	.
.	.	12cc\	.
8ryy	16aa-/	.	.
.	.	12b-\J	.
.	16eee-/JJ	.	.
16ee->\	16ryy	12a-\L	.
16ryy	16aa-/LL	.	.
.	.	12gn\	.
16ryy	16cc/JJ	.	.
.	.	12a-\J	.
16a->\	16ryy	.	.
*Xrep	*Xrep	*	*
=153	=153	=153	=153
8f 8A- 8D-X\	8ddd- 8aa- 8dd-\	12a-\L	.
.	.	12dd-\	.
8r	8r	.	.
.	.	12dd-\J	.
!	!	!	!LO:DY:a
4ff>T\	4aa-T\	12dd-\L	[ f
.	.	12dd-\	.
.	.	12dd-\J	.
32qqeen>\LLL	32qqgg\LLL	.	.
32qqff>\JJJ	32qqaa-\JJJ	.	.
*	*	*rep	*
4ryy	8ddd- 8dd-\	12a-\L	.
.	.	12dd-\	.
.	8r	.	.
.	.	12dd-\J	.
4ff>T\	4aa-T\	12dd-\L	.
.	.	12dd-\	.
.	.	12dd-\J	.
32qqee>\LLL	32qqgg\LLL	.	.
32qqff>\JJJ	32qqaa-\JJJ	.	.
*	*	*Xrep	*
!	!	!LO:LB:g=original	!
=154	=154	=154	=154
*	*^	*	*
.	.	.	32qqdd-\LLL	.
.	.	.	32qqee-\JJJ	.
!	!	!	!	!LO:HP:a
2r	16dd-\	16ryy	12ff\L	<
.	16ff/LL	4ff\	.	.
.	.	.	12ee-\	.
.	16ddd-/	.	.	.
.	.	.	12dd-\J	.
.	16aaa-/JJ	.	.	.
*	*8va	*	*	*
.	12aaa-L 12aa-\	.	12cc\L	.
.	.	16ryy	.	.
.	12ggg 12gg\	.	12b-\	.
.	.	8ryy	.	.
.	12fffJ 12ff\	.	12a-\J	.
8e-\	12eee-L 12ee-\	2ryy	12g\L	.
.	12ddd- 12dd-\	.	12f\	.
8r	.	.	.	.
.	12cccJ 12cc\	.	12e-\J	.
*	*X8va	*	*	*
!	!LO:TX:a:t=loco	!	!	!
8E-\	12bb-L 12b-\	.	12d-\L	.
.	12aa- 12a-\	.	12c\	.
8r	.	.	.	.
!	!	!	!	!LO:DY:a
.	12ggJ 12g\	.	12B-\J	fff
*	*v	*v	*	*
=155	=155	=155	=155
12AA-\L	12aa-:L 12a-: 12c:\	(16A-\LL	.
.	.	16e-\	.
12BB-\	12B-\	.	.
.	.	16cc\	.
12C\J	12c\J	.	.
.	.	16aa-\JJ)	.
!	!	!LO:TX:a:t=bis	!
12BB-\L	12B-</L	(16aa-\LL	.
.	.	16cc\	.
12AA-\	12A-</	.	.
.	.	16e-\	.
12GG\J	12G</J	.	.
.	.	16A-\JJ)	.
*	*	*rep	*
12FF\L	12F</L	(16A-\LL	.
.	.	16e-\	.
12EE-\	12E-</	.	.
.	.	16cc\	.
12DDn\J	12Dn</J	.	.
.	.	16aa-\JJ)	.
12EE-\L	12E-</L	(16aa-\LL	.
.	.	16cc\	.
12FF\	12F</	.	.
.	.	16e-\	.
12EE-\J	12E-</J	.	.
.	.	16A-\JJ)	.
*	*	*Xrep	*
=156	=156	=156	=156
!	!	!LO:TX:t=P:problem:fragment oznaczony znakiem repetycji	!
12EE-\L	12E-</L	(y16A-\LLyy	.
.	.	16e-\yy	.
12AA-\	12A-</	.	.
.	.	16cc\yy	.
12AA-J	12A-</J	.	.
.	.	16aa-\JJ)yy	.
*tremolo	*tremolo	*	*
!LO:N:TREM:vis=4.	!LO:N:TREM:vis=4.	!	!
12AA-\L	12A-</L	(y16aa-\LLyy	.
.	.	16cc\yy	.
12AA-\	12A-</	.	.
.	.	16e-\yy	.
12AA-\J	12A-</J	.	.
.	.	16A-\JJ)yy	.
*Xtremolo	*Xtremolo	*	*
*rep	*rep	*rep	*
12EE-\L	12E-</L	(y16A-\LLyy	.
.	.	16e-\yy	.
12AA-\	12A-</	.	.
.	.	16cc\yy	.
12AA-\J	12A-</J	.	.
.	.	16aa-\JJ)yy	.
*tremolo	*tremolo	*	*
!LO:N:TREM:vis=4.	!LO:N:TREM:vis=4.	!	!
12AA-\L	12A-</L	(y16aa-\LLyy	.
.	.	16cc\yy	.
12AA-\	12A-</	.	.
.	.	16e-\yy	.
12AA-\J	12A-</J	.	.
.	.	16A-\JJ)yy	.
*Xrep	*Xrep	*Xrep	*
*Xtremolo	*Xtremolo	*	*
=157	=157	=157	=157
12AA-\L	12A-</L	(16A-\LL	.
.	.	16f\	.
12GG\	12G</	.	.
.	.	16cc\	.
12FF\J	12F</J	.	.
.	.	16aa-\JJ)	.
12AA-\L	12A-</L	(16aa-\LL	.
.	.	16cc\	.
12GG\	12G</	.	.
.	.	16f\	.
12FF\J	12F</J	.	.
.	.	16A-\JJ)	.
*rep	*rep	*rep	*
12AA-\L	12A-</L	(16A-\LL	.
.	.	16f\	.
12GG\	12G</	.	.
.	.	16cc\	.
12FF\J	12F</J	.	.
.	.	16aa-\JJ)	.
12AA-\L	12A-</L	(16aa-\LL	.
.	.	16cc\	.
12GG\	12G</	.	.
.	.	16f\	.
12FF\J	12F</J	.	.
.	.	16A-\JJ)	.
*Xrep	*Xrep	*Xrep	*
!LO:LB:g=original	!LO:LB:g=original	!	!
=158	=158	=158	=158
12EEn\L	12En</L	(16G\LL	.
.	.	16en\	.
12CC\	12C</	.	.
.	.	16cc\	.
12CC\J	12C</J	.	.
.	.	16gg\JJ)	.
*tremolo	*tremolo	*	*
!LO:N:TREM:vis=4.	!LO:N:TREM:vis=4.	!	!
12CC\L	12C</L	(16gg\LL	.
.	.	16cc\	.
12CC\	12C</	.	.
.	.	16e\	.
12CC\J	12C</J	.	.
.	.	16G\JJ)	.
*Xtremolo	*Xtremolo	*	*
*	*	*rep	*
12EE\L	12E</L	(16G\LL	.
.	.	16e\	.
12CC\	12C</	.	.
.	.	16cc\	.
12CC\J	12C</J	.	.
.	.	16gg\JJ)	.
*tremolo	*tremolo	*	*
!LO:N:TREM:vis=4.	!LO:N:TREM:vis=4.	!	!
12CC\L	12C</L	(16gg\LL	.
.	.	16cc\	.
12CC\	12C</	.	.
.	.	16e\	.
12CC\J	12C</J	.	.
.	.	16G\JJ)	.
*Xtremolo	*Xtremolo	*Xrep	*
!	!	!LO:LB:g=original	!
=159	=159	=159	=159
12C\L	12c\L	(16G\LL	.
.	.	16e-\	.
12Dn\	12dn\	.	.
.	.	16cc\	.
12E-\J	12e-\J	.	.
.	.	16gg\JJ)	.
!	!	!LO:TX:a:t=bis	!
12Dn\L	12d\L	(16gg\LL	.
.	.	16cc\	.
12C\	12c\	.	.
.	.	16e-\	.
12BB-\J	12B-\J	.	.
.	.	16G\JJ)	.
*	*	*rep	*
12AA-\L	12A-\L	(16G\LL	.
.	.	16e-\	.
12GG\	12G\	.	.
.	.	16cc\	.
12FF#X\J	12F#X\J	.	.
.	.	16gg\JJ)	.
12GG\L	12G\L	(16gg\LL	.
.	.	16cc\	.
12AA-\	12A-\	.	.
.	.	16e-\	.
12GG\J	12G\J	.	.
.	.	16G\JJ)	.
*	*	*Xrep	*
=160	=160	=160	=160
!	!	!LO:TX:t=P:problem:fragment oznaczony znakiem repetycji	!
12GG\L	12G\L	(y16G\LLyy	.
.	.	16e-\yy	.
12C\	12c\	.	.
.	.	16cc\yy	.
12C\J	12c\J	.	.
.	.	16gg\JJ)yy	.
*tremolo	*tremolo	*	*
!LO:N:TREM:vis=4.	!LO:N:TREM:vis=4.	!	!
12C\L	12c\L	(y16gg\LLyy	.
.	.	16cc\yy	.
12C\	12c\	.	.
.	.	16e-\yy	.
12C\J	12c\J	.	.
.	.	16G\JJ)yy	.
*Xtremolo	*Xtremolo	*	*
*rep	*rep	*rep	*
12GG\L	12G\L	(y16G\LLyy	.
.	.	16e-\yy	.
12C\	12c\	.	.
.	.	16cc\yy	.
12C\J	12c\J	.	.
.	.	16gg\JJ)yy	.
*tremolo	*tremolo	*	*
!LO:N:TREM:vis=4.	!LO:N:TREM:vis=4.	!	!
12C\L	12c\L	(y16gg\LLyy	.
.	.	16cc\yy	.
12C\	12c\	.	.
.	.	16e-\yy	.
12C\J	12c\J	.	.
.	.	16G\JJ)yy	.
*Xrep	*Xrep	*Xrep	*
*Xtremolo	*Xtremolo	*	*
=161	=161	=161	=161
12C\L	12c\L	(16A-\LL	.
.	.	16f\	.
12BB-\	12B-\	.	.
.	.	16cc\	.
12AA-\J	12A-\J	.	.
.	.	16aa-\JJ)	.
12C\L	12c\L	(16aa-\LL	.
.	.	16cc\	.
12BB-\	12B-\	.	.
.	.	16f\	.
12AA-\J	12A-\J	.	.
.	.	16A-\JJ)	.
*rep	*rep	*rep	*
12C\L	12c\L	(16A-\LL	.
.	.	16f\	.
12BB-\	12B-\	.	.
.	.	16cc\	.
12AA-\J	12A-\J	.	.
.	.	16aa-\JJ)	.
12C\L	12c\L	(16aa-\LL	.
.	.	16cc\	.
12BB-\	12B-\	.	.
.	.	16f\	.
12AA-\J	12A-\J	.	.
.	.	16A-\JJ)	.
*Xrep	*Xrep	*Xrep	*
=162	=162	=162	=162
!	!	!	!LO:DY:a:t=f.
12GG\L	12G</L	(16G\LL	f
.	.	16en\	.
12CC\	12C</	.	.
.	.	16cc\	.
12CC\J	12C</J	.	.
.	.	16gg\JJ)	.
*tremolo	*tremolo	*	*
!LO:N:TREM:vis=4.	!LO:N:TREM:vis=4.	!	!
12CC\L	12C</L	(16gg\LL	.
.	.	16cc\	.
12CC\	12C</	.	.
.	.	16e\	.
12CC\J	12C</J	.	.
*	*Xtremolo	*	*
.	.	16G\JJ)	.
!LO:N:TREM:vis=4.	!	!	!
12CC\L	8C</	4c\	.
12CC\	.	.	.
.	8r	.	.
12CC\J	.	.	.
!LO:N:TREM:vis=4.	!	!	!
12CC\L	4een 4cc\	4r	.
12CC\	.	.	.
12CC\J	.	.	.
*Xtremolo	*	*	*
=163	=163	=163	=163
!	!	!LO:TX:a:t=3	!
12CC\L	2ff 2dd-\	1r	.
12DD-\	.	.	.
12EE-\J	.	.	.
12FF\L	.	.	.
12GG\	.	.	.
12AA-\J	.	.	.
12BB-\L	4ff 4dd-\	.	.
12C\	.	.	.
12D-\J	.	.	.
12E-\L	4ff 4dd-\	.	.
12F\	.	.	.
12G\J	.	.	.
=164	=164	=164	=164
12A-\L	2ff 2dd-\	1r	.
12B-\	.	.	.
12c\J	.	.	.
*clefG2	*	*	*
12d-/L	.	.	.
12e-/	.	.	.
12f/J	.	.	.
12g\L	2ff 2dd-\	.	.
12a-\	.	.	.
12b-\J	.	.	.
12cc\L	.	.	.
12dd-\	.	.	.
12ee-\J	.	.	.
!LO:LB:g=original	!LO:LB:g=original	!	!
=165	=165	=165	=165
4ryy	8ff 8dd-\	1r	.
.	8r	.	.
4ff>T\	4aa-T\	.	.
32qqeen>\LLL	32qqgg\LLL	.	.
32qqff>\JJJ	32qqaa-\JJJ	.	.
4ryy	8ddd- 8dd-\	.	.
.	8r	.	.
4ff>T\	4aa-T\	.	.
32qqee>\LLL	32qqgg\LLL	.	.
32qqff>\JJJ	32qqaa-\JJJ	.	.
!	!	!LO:PB:g=original	!
=166	=166	=166	=166
1ryy	4ddd- 4dd-\	4r	.
!	!	!	!LO:DY:a
.	4r	12d-\L	pp
.	.	12d-\	.
.	.	12d-\J	.
.	4r	4d-\	.
.	4r	4d-\	.
*clefF4	*	*	*
=167	=167	=167	=167
!	!	!LO:TX:a:t=3	!
12BBB-\L	2gg 2dd-\	1r	.
12CC\	.	.	.
12DD-\J	.	.	.
12EE-\L	.	.	.
12FF/\	.	.	.
12GG\J	.	.	.
12AA-\L	4gg 4dd-\	.	.
12BB-\	.	.	.
12C\J	.	.	.
12D-\L	4gg 4dd-\	.	.
12E-\	.	.	.
12F\J	.	.	.
=168	=168	=168	=168
12G\L	2gg 2dd-\	1r	.
12A-\	.	.	.
12B-\J	.	.	.
*clefG2	*	*	*
12c\L	.	.	.
12d-\	.	.	.
12e-\J	.	.	.
12f\L	2gg 2dd-\	.	.
12g\	.	.	.
12a-\J	.	.	.
12b-\L	.	.	.
12cc\	.	.	.
12dd-\J	.	.	.
=169	=169	=169	=169
*	*^	*	*
8ee-\	8gg/	8dd-\	1r	.
8r	8r	8ryy	.	.
4gg>t\	4bb-T\	4ryy	.	.
32qqff#X>\LLL	32qqaan\LLL	.	.	.
32qqgg>\JJJ	32qqbb-\JJJ	.	.	.
4ryy	8eee- 8ee-\	2ryy	.	.
.	8r	.	.	.
4gg>t\	4bb-T\	.	.	.
*	*v	*v	*	*
32qqff#>\LLL	32qqaa\LLL	.	.
32qqgg>\JJJ	32qqbb-\JJJ	.	.
=170	=170	=170	=170
1ryy	4eee- 4ee-\	4r	.
!	!	!	!LO:DY:a
.	4r	12e-\L	pp
.	.	12e-\	.
.	.	12e-\J	.
.	4r	4e-\	.
.	4r	4e-\	.
*clefF4	*	*	*
=171	=171	=171	=171
8e- 8A-\	8aa- 8cc\	1r	.
8r	8r	.	.
4ccc>t\	4eee-T\	.	.
32qqbbn>\LLL	32qqdddn\LLL	.	.
32qqccc>\JJJ	32qqeee-\JJJ	.	.
4ryy	8aaa- 8aa-\	.	.
.	8r	.	.
4ccc>t\	4eee-T\	.	.
32qqbb>\LLL	32qqddd\LLL	.	.
32qqccc>\JJJ	32qqeee-\JJJ	.	.
!LO:LB:g=original	!LO:LB:g=original	!	!
=172	=172	=172	=172
4r	12aaa-L 12aa-\	4r	.
.	12eee- 12ccc\	.	.
.	12fffJ 12ddd-\	.	.
*clefG2	*	*	*
!	!	!	!LO:DY:a:t=pp.
4ee-\	12eee-L 12ccc\	12eee-\L	pp
.	12ddd- 12bb-\	12eee-\	.
.	12cccJ 12aa-\	12eee-\J	.
4e-/	12bb-L 12gg\	4eee-\	.
.	12aa- 12ff\	.	.
.	12ggJ 12ee-\	.	.
*clefF4	*	*	*
4E-\	12ffL 12dd-\	4eee-\	.
.	12ee- 12cc\	.	.
.	12dd-J 12b-\	.	.
=173	=173	=173	=173
*^	*	*	*
4AA-\	4ryy	8cc 8a-\	1r	.
.	.	8r	.	.
4cc>t\	4r	4ee-T\	.	.
32qqbn>\LLL	.	32qqddn\LLL	.	.
32qqcc>\JJJ	.	32qqee-\JJJ	.	.
4ryy	2ryy	8aa- 8a-\	.	.
.	.	8r	.	.
4cc>t\	.	4ee-T\	.	.
32qqb>\LLL	.	32qqdd\LLL	.	.
32qqcc>\JJJ	.	32qqee-\JJJ	.	.
*v	*v	*	*	*
=174	=174	=174	=174
4r	12aa-L 12a-\	4r	.
.	12ee- 12cc\	.	.
.	12ffJ 12dd-\	.	.
!	!	!	!LO:DY:a
4e-\	12ee-L 12cc\	12e-\L	pp
.	12dd- 12b-\	12e-\	.
.	12ccJ 12a-\	12e-\J	.
4E-\	12b-L 12g\	4e-\	.
.	12a- 12f\	.	.
.	12gJ 12e-\	.	.
4EE-\	12fL 12d-\	4e-\	.
.	12e- 12c\	.	.
.	12d-J 12B-\	.	.
!	!	!LO:LB:g=original	!
=175	=175	=175	=175
!LO:TX:b:i:t=pizicato	!	!	!
4AAA-\	12c<L 12A-</	8a- 8c'\	.
.	12B-< 12E-</	.	.
!	!	!	!LO:DY:a
.	.	8r	pp
.	12c<J 12A-</	.	.
*tremolo	*	*	*
!LO:N:TREM:vis=4.	!	!	!
12EEE-\L	12B-<L 12E-</	12e-\L	.
12EEE-\	12c< 12A-</	12e-\	.
12EEE-\J	12B-<J 12E-</	12e-\J	.
*Xtremolo	*	*	*
8EEE-\	12c<L 12A-</	4e-\	.
.	12B-< 12E-</	.	.
8r	.	.	.
.	12c<J 12A-</	.	.
8EEE-\	12B-<L 12E-</	4e-\	.
.	12c< 12A-</	.	.
8r	.	.	.
.	12B-<J 12E-</	.	.
=176	=176	=176	=176
!	!	!	!LO:DY:a
4AAA-\	12c<L 12A-</	4a- 4c'\	pp
.	12B-< 12E-</	.	.
.	12c<J 12A-</	.	.
*tremolo	*	*	*
!LO:N:TREM:vis=4.	!	!	!
12EEE-\L	12B-<L 12E-</	12e-\L	.
12EEE-\	12c< 12A-</	12e-\	.
12EEE-\J	12B-<J 12E-</	12e-\J	.
*Xtremolo	*	*	*
4AAA-\	12c<L 12A-</	4a- 4c'\	.
.	12B-< 12E-</	.	.
.	12c<J 12A-</	.	.
*tremolo	*	*	*
!LO:N:TREM:vis=4.	!	!	!
12EEE-\L	12B-<L 12E-</	12e-\L	.
12EEE-\	12c< 12A-</	12e-\	.
12EEE-\J	12B-<J 12E-</	12e-\J	.
*Xtremolo	*	*	*
!LO:LB:g=original	!LO:LB:g=original	!	!
=177	=177	=177	=177
!LO:TX:b:i:t=piz.	!	!	!LO:DY:a
4AAA-\	12c<L 12A-</	4a- 4c'\	ppp
.	12B-< 12E-</	.	.
.	12c<J 12A-</	.	.
!	!LO:TX:t=P:problem:mixed beam	!	!
4EEE-\	12e-<L 12B-</	4r	.
.	12a- 12c\	.	.
.	12b-J 12e-\	.	.
4AAA-\	12ccL 12a-\	2r	.
.	12ee- 12b-\	.	.
.	12aa-J 12cc\	.	.
4EEE-\	12bb-L 12ee-\	.	.
.	12ccc 12aa-\	.	.
.	12eee-J 12bb-\	.	.
=178	=178	=178	=178
*	*8va	*	*
!	!	!LO:TX:t=P:problem:brak taktu nr 178	!
4AAA-\	12aaa-L 12ccc\	1ryy	.
.	12b- 12e-\	.	.
.	12ccJ 12a-\	.	.
4EEE-\	12ee-L 12b-\	.	.
.	12aa- 12cc\	.	.
.	12bb-J 12ee-\	.	.
4AAA-\	12cccL 12aa-\	.	.
.	12eee- 12bb-\	.	.
.	12aaa-J 12ccc\	.	.
4EEE-\	12bbb-L 12eee-\	.	.
.	12cccc 12aaa-\	.	.
.	12eeee-J 12bbb-\	.	.
=179	=179	=179	=179
!	!	!LO:TX:a:i:t=piz.	!LO:DY:a
8AAA-\	8aaaa- 8cccc\	4ee- 4a- 4c\	pp
*	*X8va	*	*
8ryy	8r	.	.
4r	4r	4r	.
16qqA- 16qqE- 16qqAA-\	32qqcc 32qqe- 32qqc\	.	.
2A- 2E- 2AA-\	2cc 2e- 2c\	2r	.
=180	=180	=180	=180
16qqAA- 16qqAAA-\	32qqA-</	.	.
!LO:TX:a:t=Fine.	!	!LO:TX:a:i:t=piz	!LO:DY:a:t=pp.
1AA- 1AAA-	1A-<;	4ee- 4a- 4c\	pp
.	.	4r	.
.	.	2r	.
==	==	==	==
*-	*-	*-	*-
!!!system-decoration: s1{(s2,s3)}
!!!RDF**kern: > = above
!!!RDF**kern: < = below
!!!RDF**kern: l = terminal long
!!!RDF**kern: | = vertical stroke
!!!RDF**kern: N = linked
!!!ENC: Berenika Jozajtis
!!!END: 2021-05-09
!!!ENC: Andrzej Kubiczek
!!!END: 2021-10-17
